; HEADER_BLOCK_START
; generated by OrcaSlicer 2.3.1 on 2026-03-05 at 11:01:28
; total layer number: 51
; filament_density: 1.24
; filament_diameter: 1.75
; max_z_height: 10.00
; HEADER_BLOCK_END

; THUMBNAIL_BLOCK_START

;
; THUMBNAIL_BLOCK_END

; THUMBNAIL_BLOCK_START

;
; THUMBNAIL_BLOCK_END

; external perimeters extrusion width = 0.60mm
; perimeters extrusion width = 0.45mm
; infill extrusion width = 0.45mm
; solid infill extrusion width = 0.40mm
; top infill extrusion width = 0.40mm
; first layer extrusion width = 0.60mm

; EXECUTABLE_BLOCK_START
M73 P0 R3
M201 X10000 Y10000 Z500 E800
M203 X500 Y500 Z20 E60
M204 P10000 R1000 T10000
M205 X20.00 Y20.00 Z10.00 E5.00 ; sets the jerk limits, mm/sec
;TYPE:Custom
G21 ;
G90 ; use absolute coordinates
M83 ; extruder relative mode
M204 S10000 T1000
M104 S220 ; set extruder temp
M140 S55 ; set bed temp
M190 S55 ; wait for bed temp
M109 S220 ; wait for extruder temp
G92 E0.0
G28 X0 Y0 ; home
G28 Z0 ; home
G1  Z5 F1000 ; move print head up
G90
G21
M83 ; use relative distances for extrusion
; Filament gcode
M106 S0 ; disable fan
;LAYER_CHANGE
;Z:0.2
;HEIGHT:0.2
;BEFORE_LAYER_CHANGE
;0.2
G92 E0

G1 Z.55 F3600 ; move to next layer (0)
;AFTER_LAYER_CHANGE
;0.2
;_SET_FAN_SPEED_CHANGING_LAYER
M204 S600 ; adjust acceleration
M205 X4 Y4 ; adjust jerk
; printing object Cube id:0 copy 0
G1 E-.9 F3000 ; retract
G1 Z1.05 F3600 ; lift Z
G1 X45.3 Y45.3 ; move to first perimeter point
G1 Z.55 ; move to first perimeter point
G1 Z.2 ; force restore Z after unknown last pos
G1 E.95 F900 ;  ; unretract
;TYPE:Outer wall
;WIDTH:0.6
G1 F600
M73 P1 R3
G1 X54.7 Y45.3 E.43542 ; perimeter
G1 X54.7 Y54.7 E.43542 ; perimeter
G1 X45.3 Y54.7 E.43542 ; perimeter
G1 X45.3 Y45.34 E.43357 ; perimeter
M73 P2 R3
; stop printing object Cube id:0 copy 0
M106 S255 ; enable fan
;LAYER_CHANGE
;Z:0.4
;HEIGHT:0.2
;BEFORE_LAYER_CHANGE
;0.4
G92 E0

G1 Z0.200 F3600 ; move to next layer (1)
;AFTER_LAYER_CHANGE
;0.4
;_SET_FAN_SPEED_CHANGING_LAYER
M104 S200 ; set nozzle temperature
; printing object Cube id:0 copy 0
G1 F600
G1 Z0.201 X45.3 Y45.3 E0.00000 ; perimeter
G1 Z0.338 X54.7 Y45.3 E0.10932 ; perimeter
G1 Z0.476 X54.7 Y54.7 E0.21817 ; perimeter
M73 P3 R3
G1 Z0.613 X45.3 Y54.7 E0.32703 ; perimeter
G1 Z0.750 X45.3 Y45.34 E0.43357 ; perimeter
M73 P4 R3
; stop printing object Cube id:0 copy 0
;LAYER_CHANGE
;Z:0.6
;HEIGHT:0.2
;BEFORE_LAYER_CHANGE
;0.6
G92 E0

G1 Z0.750 F3600 ; move to next layer (2)
;AFTER_LAYER_CHANGE
;0.6
;_SET_FAN_SPEED_CHANGING_LAYER
; printing object Cube id:0 copy 0
G1 F600
G1 Z0.750 X45.3 Y45.3 E.00185 ; perimeter
G1 Z0.800 X54.7 Y45.3 E.43542 ; perimeter
G1 Z0.850 X54.7 Y54.7 E.43542 ; perimeter
M73 P5 R3
G1 Z0.900 X45.3 Y54.7 E.43542 ; perimeter
G1 Z0.950 X45.3 Y45.34 E.43357 ; perimeter
M73 P6 R2
; stop printing object Cube id:0 copy 0
;LAYER_CHANGE
;Z:0.8
;HEIGHT:0.2
;BEFORE_LAYER_CHANGE
;0.8
G92 E0

G1 Z0.950 F3600 ; move to next layer (3)
;AFTER_LAYER_CHANGE
;0.8
;_SET_FAN_SPEED_CHANGING_LAYER
; printing object Cube id:0 copy 0
G1 F600
G1 Z0.950 X45.3 Y45.3 E.00185 ; perimeter
G1 Z1.000 X54.7 Y45.3 E.43542 ; perimeter
G1 Z1.050 X54.7 Y54.7 E.43542 ; perimeter
M73 P7 R2
G1 Z1.100 X45.3 Y54.7 E.43542 ; perimeter
G1 Z1.150 X45.3 Y45.34 E.43357 ; perimeter
M73 P8 R2
; stop printing object Cube id:0 copy 0
;LAYER_CHANGE
;Z:1
;HEIGHT:0.2
;BEFORE_LAYER_CHANGE
;1
G92 E0

G1 Z1.150 F3600 ; move to next layer (4)
;AFTER_LAYER_CHANGE
;1
;_SET_FAN_SPEED_CHANGING_LAYER
; printing object Cube id:0 copy 0
G1 F600
G1 Z1.150 X45.3 Y45.3 E.00185 ; perimeter
G1 Z1.200 X54.7 Y45.3 E.43542 ; perimeter
G1 Z1.250 X54.7 Y54.7 E.43542 ; perimeter
M73 P9 R2
G1 Z1.300 X45.3 Y54.7 E.43542 ; perimeter
G1 Z1.350 X45.3 Y45.34 E.43357 ; perimeter
M73 P10 R2
; stop printing object Cube id:0 copy 0
;LAYER_CHANGE
;Z:1.2
;HEIGHT:0.2
;BEFORE_LAYER_CHANGE
;1.2
G92 E0

G1 Z1.350 F3600 ; move to next layer (5)
;AFTER_LAYER_CHANGE
;1.2
;_SET_FAN_SPEED_CHANGING_LAYER
; printing object Cube id:0 copy 0
G1 F600
G1 Z1.350 X45.3 Y45.3 E.00185 ; perimeter
G1 Z1.400 X54.7 Y45.3 E.43542 ; perimeter
G1 Z1.450 X54.7 Y54.7 E.43542 ; perimeter
M73 P11 R2
G1 Z1.500 X45.3 Y54.7 E.43542 ; perimeter
G1 Z1.550 X45.3 Y45.34 E.43357 ; perimeter
M73 P12 R2
; stop printing object Cube id:0 copy 0
;LAYER_CHANGE
;Z:1.4
;HEIGHT:0.2
;BEFORE_LAYER_CHANGE
;1.4
G92 E0

G1 Z1.550 F3600 ; move to next layer (6)
;AFTER_LAYER_CHANGE
;1.4
;_SET_FAN_SPEED_CHANGING_LAYER
; printing object Cube id:0 copy 0
G1 F600
G1 Z1.550 X45.3 Y45.3 E.00185 ; perimeter
G1 Z1.600 X54.7 Y45.3 E.43542 ; perimeter
G1 Z1.650 X54.7 Y54.7 E.43542 ; perimeter
M73 P13 R2
G1 Z1.700 X45.3 Y54.7 E.43542 ; perimeter
G1 Z1.750 X45.3 Y45.34 E.43357 ; perimeter
M73 P14 R2
; stop printing object Cube id:0 copy 0
;LAYER_CHANGE
;Z:1.6
;HEIGHT:0.2
;BEFORE_LAYER_CHANGE
;1.6
G92 E0

G1 Z1.750 F3600 ; move to next layer (7)
;AFTER_LAYER_CHANGE
;1.6
;_SET_FAN_SPEED_CHANGING_LAYER
; printing object Cube id:0 copy 0
G1 F600
G1 Z1.750 X45.3 Y45.3 E.00185 ; perimeter
G1 Z1.800 X54.7 Y45.3 E.43542 ; perimeter
G1 Z1.850 X54.7 Y54.7 E.43542 ; perimeter
M73 P15 R2
G1 Z1.900 X45.3 Y54.7 E.43542 ; perimeter
G1 Z1.950 X45.3 Y45.34 E.43357 ; perimeter
M73 P16 R2
; stop printing object Cube id:0 copy 0
;LAYER_CHANGE
;Z:1.8
;HEIGHT:0.2
;BEFORE_LAYER_CHANGE
;1.8
G92 E0

G1 Z1.950 F3600 ; move to next layer (8)
;AFTER_LAYER_CHANGE
;1.8
;_SET_FAN_SPEED_CHANGING_LAYER
; printing object Cube id:0 copy 0
G1 F600
G1 Z1.950 X45.3 Y45.3 E.00185 ; perimeter
G1 Z2.000 X54.7 Y45.3 E.43542 ; perimeter
G1 Z2.050 X54.7 Y54.7 E.43542 ; perimeter
M73 P17 R2
G1 Z2.100 X45.3 Y54.7 E.43542 ; perimeter
G1 Z2.150 X45.3 Y45.34 E.43357 ; perimeter
M73 P18 R2
; stop printing object Cube id:0 copy 0
;LAYER_CHANGE
;Z:2
;HEIGHT:0.2
;BEFORE_LAYER_CHANGE
;2
G92 E0

G1 Z2.150 F3600 ; move to next layer (9)
;AFTER_LAYER_CHANGE
;2
;_SET_FAN_SPEED_CHANGING_LAYER
; printing object Cube id:0 copy 0
G1 F600
G1 Z2.150 X45.3 Y45.3 E.00185 ; perimeter
G1 Z2.200 X54.7 Y45.3 E.43542 ; perimeter
G1 Z2.250 X54.7 Y54.7 E.43542 ; perimeter
M73 P19 R2
G1 Z2.300 X45.3 Y54.7 E.43542 ; perimeter
G1 Z2.350 X45.3 Y45.34 E.43357 ; perimeter
M73 P20 R2
; stop printing object Cube id:0 copy 0
;LAYER_CHANGE
;Z:2.2
;HEIGHT:0.2
;BEFORE_LAYER_CHANGE
;2.2
G92 E0

G1 Z2.350 F3600 ; move to next layer (10)
;AFTER_LAYER_CHANGE
;2.2
;_SET_FAN_SPEED_CHANGING_LAYER
; printing object Cube id:0 copy 0
G1 F600
G1 Z2.350 X45.3 Y45.3 E.00185 ; perimeter
G1 Z2.400 X54.7 Y45.3 E.43542 ; perimeter
G1 Z2.450 X54.7 Y54.7 E.43542 ; perimeter
M73 P21 R2
G1 Z2.500 X45.3 Y54.7 E.43542 ; perimeter
G1 Z2.550 X45.3 Y45.34 E.43357 ; perimeter
M73 P22 R2
; stop printing object Cube id:0 copy 0
;LAYER_CHANGE
;Z:2.4
;HEIGHT:0.2
;BEFORE_LAYER_CHANGE
;2.4
G92 E0

G1 Z2.550 F3600 ; move to next layer (11)
;AFTER_LAYER_CHANGE
;2.4
;_SET_FAN_SPEED_CHANGING_LAYER
; printing object Cube id:0 copy 0
G1 F600
G1 Z2.550 X45.3 Y45.3 E.00185 ; perimeter
G1 Z2.600 X54.7 Y45.3 E.43542 ; perimeter
G1 Z2.650 X54.7 Y54.7 E.43542 ; perimeter
M73 P23 R2
G1 Z2.700 X45.3 Y54.7 E.43542 ; perimeter
G1 Z2.750 X45.3 Y45.34 E.43357 ; perimeter
M73 P24 R2
; stop printing object Cube id:0 copy 0
;LAYER_CHANGE
;Z:2.6
;HEIGHT:0.2
;BEFORE_LAYER_CHANGE
;2.6
G92 E0

G1 Z2.750 F3600 ; move to next layer (12)
;AFTER_LAYER_CHANGE
;2.6
;_SET_FAN_SPEED_CHANGING_LAYER
; printing object Cube id:0 copy 0
G1 F600
G1 Z2.750 X45.3 Y45.3 E.00185 ; perimeter
G1 Z2.800 X54.7 Y45.3 E.43542 ; perimeter
G1 Z2.850 X54.7 Y54.7 E.43542 ; perimeter
M73 P25 R2
G1 Z2.900 X45.3 Y54.7 E.43542 ; perimeter
G1 Z2.950 X45.3 Y45.34 E.43357 ; perimeter
M73 P26 R2
; stop printing object Cube id:0 copy 0
;LAYER_CHANGE
;Z:2.8
;HEIGHT:0.2
;BEFORE_LAYER_CHANGE
;2.8
G92 E0

G1 Z2.950 F3600 ; move to next layer (13)
;AFTER_LAYER_CHANGE
;2.8
;_SET_FAN_SPEED_CHANGING_LAYER
; printing object Cube id:0 copy 0
G1 F600
G1 Z2.950 X45.3 Y45.3 E.00185 ; perimeter
G1 Z3.000 X54.7 Y45.3 E.43542 ; perimeter
G1 Z3.050 X54.7 Y54.7 E.43542 ; perimeter
M73 P27 R2
G1 Z3.100 X45.3 Y54.7 E.43542 ; perimeter
G1 Z3.150 X45.3 Y45.34 E.43357 ; perimeter
M73 P28 R2
; stop printing object Cube id:0 copy 0
;LAYER_CHANGE
;Z:3
;HEIGHT:0.2
;BEFORE_LAYER_CHANGE
;3
G92 E0

G1 Z3.150 F3600 ; move to next layer (14)
;AFTER_LAYER_CHANGE
;3
;_SET_FAN_SPEED_CHANGING_LAYER
; printing object Cube id:0 copy 0
G1 F600
G1 Z3.150 X45.3 Y45.3 E.00185 ; perimeter
G1 Z3.200 X54.7 Y45.3 E.43542 ; perimeter
G1 Z3.250 X54.7 Y54.7 E.43542 ; perimeter
M73 P29 R2
G1 Z3.300 X45.3 Y54.7 E.43542 ; perimeter
G1 Z3.350 X45.3 Y45.34 E.43357 ; perimeter
M73 P30 R2
; stop printing object Cube id:0 copy 0
;LAYER_CHANGE
;Z:3.2
;HEIGHT:0.2
;BEFORE_LAYER_CHANGE
;3.2
G92 E0

G1 Z3.350 F3600 ; move to next layer (15)
;AFTER_LAYER_CHANGE
;3.2
;_SET_FAN_SPEED_CHANGING_LAYER
; printing object Cube id:0 copy 0
G1 F600
G1 Z3.350 X45.3 Y45.3 E.00185 ; perimeter
G1 Z3.400 X54.7 Y45.3 E.43542 ; perimeter
G1 Z3.450 X54.7 Y54.7 E.43542 ; perimeter
M73 P31 R2
G1 Z3.500 X45.3 Y54.7 E.43542 ; perimeter
G1 Z3.550 X45.3 Y45.34 E.43357 ; perimeter
M73 P32 R2
; stop printing object Cube id:0 copy 0
;LAYER_CHANGE
;Z:3.4
;HEIGHT:0.2
;BEFORE_LAYER_CHANGE
;3.4
G92 E0

G1 Z3.550 F3600 ; move to next layer (16)
;AFTER_LAYER_CHANGE
;3.4
;_SET_FAN_SPEED_CHANGING_LAYER
; printing object Cube id:0 copy 0
G1 F600
G1 Z3.550 X45.3 Y45.3 E.00185 ; perimeter
G1 Z3.600 X54.7 Y45.3 E.43542 ; perimeter
G1 Z3.650 X54.7 Y54.7 E.43542 ; perimeter
M73 P33 R2
G1 Z3.700 X45.3 Y54.7 E.43542 ; perimeter
G1 Z3.750 X45.3 Y45.34 E.43357 ; perimeter
M73 P34 R2
; stop printing object Cube id:0 copy 0
;LAYER_CHANGE
;Z:3.6
;HEIGHT:0.2
;BEFORE_LAYER_CHANGE
;3.6
G92 E0

G1 Z3.750 F3600 ; move to next layer (17)
;AFTER_LAYER_CHANGE
;3.6
;_SET_FAN_SPEED_CHANGING_LAYER
; printing object Cube id:0 copy 0
G1 F600
G1 Z3.750 X45.3 Y45.3 E.00185 ; perimeter
G1 Z3.800 X54.7 Y45.3 E.43542 ; perimeter
G1 Z3.850 X54.7 Y54.7 E.43542 ; perimeter
M73 P35 R2
G1 Z3.900 X45.3 Y54.7 E.43542 ; perimeter
G1 Z3.950 X45.3 Y45.34 E.43357 ; perimeter
M73 P36 R2
; stop printing object Cube id:0 copy 0
;LAYER_CHANGE
;Z:3.8
;HEIGHT:0.2
;BEFORE_LAYER_CHANGE
;3.8
G92 E0

G1 Z3.950 F3600 ; move to next layer (18)
;AFTER_LAYER_CHANGE
;3.8
;_SET_FAN_SPEED_CHANGING_LAYER
; printing object Cube id:0 copy 0
G1 F600
G1 Z3.950 X45.3 Y45.3 E.00185 ; perimeter
G1 Z4.000 X54.7 Y45.3 E.43542 ; perimeter
G1 Z4.050 X54.7 Y54.7 E.43542 ; perimeter
M73 P37 R2
G1 Z4.100 X45.3 Y54.7 E.43542 ; perimeter
G1 Z4.150 X45.3 Y45.34 E.43357 ; perimeter
M73 P38 R1
; stop printing object Cube id:0 copy 0
;LAYER_CHANGE
;Z:4
;HEIGHT:0.2
;BEFORE_LAYER_CHANGE
;4
G92 E0

G1 Z4.150 F3600 ; move to next layer (19)
;AFTER_LAYER_CHANGE
;4
;_SET_FAN_SPEED_CHANGING_LAYER
; printing object Cube id:0 copy 0
G1 F600
G1 Z4.150 X45.3 Y45.3 E.00185 ; perimeter
G1 Z4.200 X54.7 Y45.3 E.43542 ; perimeter
G1 Z4.250 X54.7 Y54.7 E.43542 ; perimeter
G1 Z4.300 X45.3 Y54.7 E.43542 ; perimeter
M73 P39 R1
G1 Z4.350 X45.3 Y45.34 E.43357 ; perimeter
; stop printing object Cube id:0 copy 0
;LAYER_CHANGE
;Z:4.2
;HEIGHT:0.2
;BEFORE_LAYER_CHANGE
;4.2
G92 E0

G1 Z4.350 F3600 ; move to next layer (20)
M73 P40 R1
;AFTER_LAYER_CHANGE
;4.2
;_SET_FAN_SPEED_CHANGING_LAYER
; printing object Cube id:0 copy 0
G1 F600
G1 Z4.350 X45.3 Y45.3 E.00185 ; perimeter
G1 Z4.400 X54.7 Y45.3 E.43542 ; perimeter
G1 Z4.450 X54.7 Y54.7 E.43542 ; perimeter
G1 Z4.500 X45.3 Y54.7 E.43542 ; perimeter
M73 P41 R1
G1 Z4.550 X45.3 Y45.34 E.43357 ; perimeter
; stop printing object Cube id:0 copy 0
;LAYER_CHANGE
;Z:4.4
;HEIGHT:0.2
;BEFORE_LAYER_CHANGE
;4.4
G92 E0

G1 Z4.550 F3600 ; move to next layer (21)
M73 P42 R1
;AFTER_LAYER_CHANGE
;4.4
;_SET_FAN_SPEED_CHANGING_LAYER
; printing object Cube id:0 copy 0
G1 F600
G1 Z4.550 X45.3 Y45.3 E.00185 ; perimeter
G1 Z4.600 X54.7 Y45.3 E.43542 ; perimeter
G1 Z4.650 X54.7 Y54.7 E.43542 ; perimeter
G1 Z4.700 X45.3 Y54.7 E.43542 ; perimeter
M73 P43 R1
G1 Z4.750 X45.3 Y45.34 E.43357 ; perimeter
; stop printing object Cube id:0 copy 0
;LAYER_CHANGE
;Z:4.6
;HEIGHT:0.2
;BEFORE_LAYER_CHANGE
;4.6
G92 E0

G1 Z4.750 F3600 ; move to next layer (22)
M73 P44 R1
;AFTER_LAYER_CHANGE
;4.6
;_SET_FAN_SPEED_CHANGING_LAYER
; printing object Cube id:0 copy 0
G1 F600
G1 Z4.750 X45.3 Y45.3 E.00185 ; perimeter
G1 Z4.800 X54.7 Y45.3 E.43542 ; perimeter
G1 Z4.850 X54.7 Y54.7 E.43542 ; perimeter
G1 Z4.900 X45.3 Y54.7 E.43542 ; perimeter
M73 P45 R1
G1 Z4.950 X45.3 Y45.34 E.43357 ; perimeter
; stop printing object Cube id:0 copy 0
;LAYER_CHANGE
;Z:4.8
;HEIGHT:0.2
;BEFORE_LAYER_CHANGE
;4.8
G92 E0

G1 Z4.950 F3600 ; move to next layer (23)
M73 P46 R1
;AFTER_LAYER_CHANGE
;4.8
;_SET_FAN_SPEED_CHANGING_LAYER
; printing object Cube id:0 copy 0
G1 F600
G1 Z4.950 X45.3 Y45.3 E.00185 ; perimeter
G1 Z5.000 X54.7 Y45.3 E.43542 ; perimeter
G1 Z5.050 X54.7 Y54.7 E.43542 ; perimeter
G1 Z5.100 X45.3 Y54.7 E.43542 ; perimeter
M73 P47 R1
G1 Z5.150 X45.3 Y45.34 E.43357 ; perimeter
; stop printing object Cube id:0 copy 0
;LAYER_CHANGE
;Z:5
;HEIGHT:0.2
;BEFORE_LAYER_CHANGE
;5
G92 E0

G1 Z5.150 F3600 ; move to next layer (24)
M73 P48 R1
;AFTER_LAYER_CHANGE
;5
;_SET_FAN_SPEED_CHANGING_LAYER
; printing object Cube id:0 copy 0
G1 F600
G1 Z5.150 X45.3 Y45.3 E.00185 ; perimeter
G1 Z5.200 X54.7 Y45.3 E.43542 ; perimeter
G1 Z5.250 X54.7 Y54.7 E.43542 ; perimeter
G1 Z5.300 X45.3 Y54.7 E.43542 ; perimeter
M73 P49 R1
G1 Z5.350 X45.3 Y45.34 E.43357 ; perimeter
; stop printing object Cube id:0 copy 0
;LAYER_CHANGE
;Z:5.2
;HEIGHT:0.2
;BEFORE_LAYER_CHANGE
;5.2
G92 E0

G1 Z5.350 F3600 ; move to next layer (25)
M73 P50 R1
;AFTER_LAYER_CHANGE
;5.2
;_SET_FAN_SPEED_CHANGING_LAYER
; printing object Cube id:0 copy 0
G1 F600
G1 Z5.350 X45.3 Y45.3 E.00185 ; perimeter
G1 Z5.400 X54.7 Y45.3 E.43542 ; perimeter
G1 Z5.450 X54.7 Y54.7 E.43542 ; perimeter
G1 Z5.500 X45.3 Y54.7 E.43542 ; perimeter
M73 P51 R1
G1 Z5.550 X45.3 Y45.34 E.43357 ; perimeter
; stop printing object Cube id:0 copy 0
;LAYER_CHANGE
;Z:5.4
;HEIGHT:0.2
;BEFORE_LAYER_CHANGE
;5.4
G92 E0

G1 Z5.550 F3600 ; move to next layer (26)
M73 P52 R1
;AFTER_LAYER_CHANGE
;5.4
;_SET_FAN_SPEED_CHANGING_LAYER
; printing object Cube id:0 copy 0
G1 F600
G1 Z5.550 X45.3 Y45.3 E.00185 ; perimeter
G1 Z5.600 X54.7 Y45.3 E.43542 ; perimeter
G1 Z5.650 X54.7 Y54.7 E.43542 ; perimeter
G1 Z5.700 X45.3 Y54.7 E.43542 ; perimeter
M73 P53 R1
G1 Z5.750 X45.3 Y45.34 E.43357 ; perimeter
; stop printing object Cube id:0 copy 0
;LAYER_CHANGE
;Z:5.6
;HEIGHT:0.2
;BEFORE_LAYER_CHANGE
;5.6
G92 E0

G1 Z5.750 F3600 ; move to next layer (27)
M73 P54 R1
;AFTER_LAYER_CHANGE
;5.6
;_SET_FAN_SPEED_CHANGING_LAYER
; printing object Cube id:0 copy 0
G1 F600
G1 Z5.750 X45.3 Y45.3 E.00185 ; perimeter
G1 Z5.800 X54.7 Y45.3 E.43542 ; perimeter
G1 Z5.850 X54.7 Y54.7 E.43542 ; perimeter
G1 Z5.900 X45.3 Y54.7 E.43542 ; perimeter
M73 P55 R1
G1 Z5.950 X45.3 Y45.34 E.43357 ; perimeter
; stop printing object Cube id:0 copy 0
;LAYER_CHANGE
;Z:5.8
;HEIGHT:0.2
;BEFORE_LAYER_CHANGE
;5.8
G92 E0

G1 Z5.950 F3600 ; move to next layer (28)
M73 P56 R1
;AFTER_LAYER_CHANGE
;5.8
;_SET_FAN_SPEED_CHANGING_LAYER
; printing object Cube id:0 copy 0
G1 F600
G1 Z5.950 X45.3 Y45.3 E.00185 ; perimeter
G1 Z6.000 X54.7 Y45.3 E.43542 ; perimeter
G1 Z6.050 X54.7 Y54.7 E.43542 ; perimeter
G1 Z6.100 X45.3 Y54.7 E.43542 ; perimeter
M73 P57 R1
G1 Z6.150 X45.3 Y45.34 E.43357 ; perimeter
; stop printing object Cube id:0 copy 0
;LAYER_CHANGE
;Z:6
;HEIGHT:0.2
;BEFORE_LAYER_CHANGE
;6
G92 E0

G1 Z6.150 F3600 ; move to next layer (29)
M73 P58 R1
;AFTER_LAYER_CHANGE
;6
;_SET_FAN_SPEED_CHANGING_LAYER
; printing object Cube id:0 copy 0
G1 F600
G1 Z6.150 X45.3 Y45.3 E.00185 ; perimeter
G1 Z6.200 X54.7 Y45.3 E.43542 ; perimeter
G1 Z6.250 X54.7 Y54.7 E.43542 ; perimeter
G1 Z6.300 X45.3 Y54.7 E.43542 ; perimeter
M73 P59 R1
G1 Z6.350 X45.3 Y45.34 E.43357 ; perimeter
; stop printing object Cube id:0 copy 0
;LAYER_CHANGE
;Z:6.2
;HEIGHT:0.2
;BEFORE_LAYER_CHANGE
;6.2
G92 E0

G1 Z6.350 F3600 ; move to next layer (30)
M73 P60 R1
;AFTER_LAYER_CHANGE
;6.2
;_SET_FAN_SPEED_CHANGING_LAYER
; printing object Cube id:0 copy 0
G1 F600
G1 Z6.350 X45.3 Y45.3 E.00185 ; perimeter
