; HEADER_BLOCK_START
; generated by OrcaSlicer 2.3.1 on 2026-03-05 at 11:02:00
; total layer number: 51
; filament_density: 1.24
; filament_diameter: 1.75
; max_z_height: 10.00
; HEADER_BLOCK_END

; THUMBNAIL_BLOCK_START

;
; THUMBNAIL_BLOCK_END

; THUMBNAIL_BLOCK_START

;
; THUMBNAIL_BLOCK_END

; external perimeters extrusion width = 0.60mm
; perimeters extrusion width = 0.45mm
; infill extrusion width = 0.45mm
; solid infill extrusion width = 0.40mm
; top infill extrusion width = 0.40mm
; first layer extrusion width = 0.60mm

; EXECUTABLE_BLOCK_START
M73 P0 R3
M201 X10000 Y10000 Z500 E800
M203 X500 Y500 Z20 E60
M204 P10000 R1000 T10000
M205 X20.00 Y20.00 Z10.00 E5.00 ; sets the jerk limits, mm/sec
;TYPE:Custom
G21 ;
G90 ; use absolute coordinates
M83 ; extruder relative mode
M204 S10000 T1000
M104 S220 ; set extruder temp
M140 S55 ; set bed temp
M190 S55 ; wait for bed temp
M109 S220 ; wait for extruder temp
G92 E0.0
G28 X0 Y0 ; home
G28 Z0 ; home
G1  Z5 F1000 ; move print head up
G90
G21
M83 ; use relative distances for extrusion
; Filament gcode
M106 S0 ; disable fan
;LAYER_CHANGE
;Z:0.2
;HEIGHT:0.2
;BEFORE_LAYER_CHANGE
;0.2
G92 E0

G1 Z.55 F3600 ; move to next layer (0)
;AFTER_LAYER_CHANGE
;0.2
;_SET_FAN_SPEED_CHANGING_LAYER
M204 S600 ; adjust acceleration
M205 X4 Y4 ; adjust jerk
; printing object Cube id:0 copy 0
G1 E-.9 F3000 ; retract
G1 Z1.05 F3600 ; lift Z
G1 X46.677 Y46.677 ; move to first perimeter point
G1 Z.55 ; move to first perimeter point
G1 Z.2 ; force restore Z after unknown last pos
G1 E.95 F900 ;  ; unretract
;TYPE:Outer wall
;WIDTH:0.6
G1 F600
M73 P1 R3
G1 X50 Y43.353 E.21771 ; perimeter
G1 X56.647 Y50 E.43542 ; perimeter
G1 X50 Y56.647 E.43542 ; perimeter
G1 X43.353 Y50 E.43542 ; perimeter
M73 P2 R3
G1 X46.648 Y46.705 E.21586 ; perimeter
; stop printing object Cube id:0 copy 0
M106 S255 ; enable fan
;LAYER_CHANGE
;Z:0.4
;HEIGHT:0.2
;BEFORE_LAYER_CHANGE
;0.4
G92 E0

G1 Z0.200 F3600 ; move to next layer (1)
;AFTER_LAYER_CHANGE
;0.4
;_SET_FAN_SPEED_CHANGING_LAYER
M104 S200 ; set nozzle temperature
; printing object Cube id:0 copy 0
G1 F600
G1 Z0.269 X50 Y43.353 E0.02768 ; perimeter
G1 Z0.407 X56.647 Y50 E0.16375 ; perimeter
M73 P3 R3
G1 Z0.544 X50 Y56.647 E0.27260 ; perimeter
G1 Z0.682 X43.353 Y50 E0.38146 ; perimeter
M73 P4 R3
G1 Z0.750 X46.648 Y46.705 E0.21586 ; perimeter
; stop printing object Cube id:0 copy 0
;LAYER_CHANGE
;Z:0.6
;HEIGHT:0.2
;BEFORE_LAYER_CHANGE
;0.6
G92 E0

G1 Z0.750 F3600 ; move to next layer (2)
;AFTER_LAYER_CHANGE
;0.6
;_SET_FAN_SPEED_CHANGING_LAYER
; printing object Cube id:0 copy 0
G1 F600
G1 Z0.775 X50 Y43.353 E.21956 ; perimeter
G1 Z0.824 X56.505 Y49.859 E.42616 ; perimeter
M73 P5 R3
G1 Z0.825 X56.647 Y50 E.00926 ; perimeter
G1 Z0.875 X50 Y56.647 E.43542 ; perimeter
G1 Z0.925 X43.353 Y50 E.43542 ; perimeter
M73 P6 R3
G1 Z0.950 X46.648 Y46.705 E.21586 ; perimeter
M73 P6 R2
; stop printing object Cube id:0 copy 0
;LAYER_CHANGE
;Z:0.8
;HEIGHT:0.2
;BEFORE_LAYER_CHANGE
;0.8
G92 E0

G1 Z0.950 F3600 ; move to next layer (3)
;AFTER_LAYER_CHANGE
;0.8
;_SET_FAN_SPEED_CHANGING_LAYER
; printing object Cube id:0 copy 0
G1 F600
G1 Z0.975 X50 Y43.353 E.21956 ; perimeter
G1 Z1.023 X56.364 Y49.717 E.41689 ; perimeter
M73 P7 R2
G1 Z1.025 X56.647 Y50 E.01853 ; perimeter
G1 Z1.075 X50 Y56.647 E.43542 ; perimeter
G1 Z1.125 X43.353 Y50 E.43542 ; perimeter
M73 P8 R2
G1 Z1.150 X46.648 Y46.705 E.21586 ; perimeter
; stop printing object Cube id:0 copy 0
;LAYER_CHANGE
;Z:1
;HEIGHT:0.2
;BEFORE_LAYER_CHANGE
;1
G92 E0

G1 Z1.150 F3600 ; move to next layer (4)
;AFTER_LAYER_CHANGE
;1
;_SET_FAN_SPEED_CHANGING_LAYER
; printing object Cube id:0 copy 0
G1 F600
G1 Z1.175 X50 Y43.353 E.21956 ; perimeter
G1 Z1.222 X56.223 Y49.576 E.40763 ; perimeter
M73 P9 R2
G1 Z1.225 X56.647 Y50 E.02779 ; perimeter
G1 Z1.275 X50 Y56.647 E.43542 ; perimeter
G1 Z1.325 X43.353 Y50 E.43542 ; perimeter
M73 P10 R2
G1 Z1.350 X46.648 Y46.705 E.21586 ; perimeter
; stop printing object Cube id:0 copy 0
;LAYER_CHANGE
;Z:1.2
;HEIGHT:0.2
;BEFORE_LAYER_CHANGE
;1.2
G92 E0

G1 Z1.350 F3600 ; move to next layer (5)
;AFTER_LAYER_CHANGE
;1.2
;_SET_FAN_SPEED_CHANGING_LAYER
; printing object Cube id:0 copy 0
G1 F600
G1 Z1.375 X50 Y43.353 E.21956 ; perimeter
G1 Z1.421 X56.081 Y49.434 E.39836 ; perimeter
M73 P11 R2
G1 Z1.425 X56.647 Y50 E.03706 ; perimeter
G1 Z1.475 X50 Y56.647 E.43542 ; perimeter
G1 Z1.525 X43.353 Y50 E.43542 ; perimeter
M73 P12 R2
G1 Z1.550 X46.648 Y46.705 E.21586 ; perimeter
; stop printing object Cube id:0 copy 0
;LAYER_CHANGE
;Z:1.4
;HEIGHT:0.2
;BEFORE_LAYER_CHANGE
;1.4
G92 E0

G1 Z1.550 F3600 ; move to next layer (6)
;AFTER_LAYER_CHANGE
;1.4
;_SET_FAN_SPEED_CHANGING_LAYER
; printing object Cube id:0 copy 0
G1 F600
G1 Z1.575 X50 Y43.353 E.21956 ; perimeter
G1 Z1.620 X55.94 Y49.293 E.3891 ; perimeter
M73 P13 R2
G1 Z1.625 X56.647 Y50 E.04632 ; perimeter
G1 Z1.675 X50 Y56.647 E.43542 ; perimeter
G1 Z1.725 X43.353 Y50 E.43542 ; perimeter
M73 P14 R2
G1 Z1.750 X46.648 Y46.705 E.21586 ; perimeter
; stop printing object Cube id:0 copy 0
;LAYER_CHANGE
;Z:1.6
;HEIGHT:0.2
;BEFORE_LAYER_CHANGE
;1.6
G92 E0

G1 Z1.750 F3600 ; move to next layer (7)
;AFTER_LAYER_CHANGE
;1.6
;_SET_FAN_SPEED_CHANGING_LAYER
; printing object Cube id:0 copy 0
G1 F600
G1 Z1.775 X50 Y43.353 E.21956 ; perimeter
G1 Z1.819 X55.798 Y49.151 E.37984 ; perimeter
M73 P15 R2
G1 Z1.825 X56.647 Y50 E.05559 ; perimeter
G1 Z1.875 X50 Y56.647 E.43542 ; perimeter
G1 Z1.925 X43.353 Y50 E.43542 ; perimeter
M73 P16 R2
G1 Z1.950 X46.648 Y46.705 E.21586 ; perimeter
; stop printing object Cube id:0 copy 0
;LAYER_CHANGE
;Z:1.8
;HEIGHT:0.2
;BEFORE_LAYER_CHANGE
;1.8
G92 E0

G1 Z1.950 F3600 ; move to next layer (8)
;AFTER_LAYER_CHANGE
;1.8
;_SET_FAN_SPEED_CHANGING_LAYER
; printing object Cube id:0 copy 0
G1 F600
G1 Z1.975 X50 Y43.353 E.21956 ; perimeter
G1 Z2.018 X55.657 Y49.01 E.37057 ; perimeter
M73 P17 R2
G1 Z2.025 X56.647 Y50 E.06485 ; perimeter
G1 Z2.075 X50 Y56.647 E.43542 ; perimeter
G1 Z2.125 X43.353 Y50 E.43542 ; perimeter
M73 P18 R2
G1 Z2.150 X46.648 Y46.705 E.21586 ; perimeter
; stop printing object Cube id:0 copy 0
;LAYER_CHANGE
;Z:2
;HEIGHT:0.2
;BEFORE_LAYER_CHANGE
;2
G92 E0

G1 Z2.150 F3600 ; move to next layer (9)
;AFTER_LAYER_CHANGE
;2
;_SET_FAN_SPEED_CHANGING_LAYER
; printing object Cube id:0 copy 0
G1 F600
G1 Z2.175 X50 Y43.353 E.21956 ; perimeter
G1 Z2.217 X55.515 Y48.869 E.36131 ; perimeter
M73 P19 R2
G1 Z2.225 X56.647 Y50 E.07411 ; perimeter
G1 Z2.275 X50 Y56.647 E.43542 ; perimeter
G1 Z2.325 X43.353 Y50 E.43542 ; perimeter
M73 P20 R2
G1 Z2.350 X46.648 Y46.705 E.21586 ; perimeter
; stop printing object Cube id:0 copy 0
;LAYER_CHANGE
;Z:2.2
;HEIGHT:0.2
;BEFORE_LAYER_CHANGE
;2.2
G92 E0

G1 Z2.350 F3600 ; move to next layer (10)
;AFTER_LAYER_CHANGE
;2.2
;_SET_FAN_SPEED_CHANGING_LAYER
; printing object Cube id:0 copy 0
G1 F600
G1 Z2.375 X50 Y43.353 E.21956 ; perimeter
G1 Z2.416 X55.374 Y48.727 E.35204 ; perimeter
M73 P21 R2
G1 Z2.425 X56.647 Y50 E.08338 ; perimeter
G1 Z2.475 X50 Y56.647 E.43542 ; perimeter
G1 Z2.525 X43.353 Y50 E.43542 ; perimeter
G1 Z2.550 X46.648 Y46.705 E.21586 ; perimeter
M73 P22 R2
; stop printing object Cube id:0 copy 0
;LAYER_CHANGE
;Z:2.4
;HEIGHT:0.2
;BEFORE_LAYER_CHANGE
;2.4
G92 E0

G1 Z2.550 F3600 ; move to next layer (11)
;AFTER_LAYER_CHANGE
;2.4
;_SET_FAN_SPEED_CHANGING_LAYER
; printing object Cube id:0 copy 0
G1 F600
G1 Z2.575 X50 Y43.353 E.21956 ; perimeter
G1 Z2.615 X55.233 Y48.586 E.34278 ; perimeter
G1 Z2.625 X56.647 Y50 E.09264 ; perimeter
M73 P23 R2
G1 Z2.675 X50 Y56.647 E.43542 ; perimeter
G1 Z2.725 X43.353 Y50 E.43542 ; perimeter
G1 Z2.750 X46.648 Y46.705 E.21586 ; perimeter
M73 P24 R2
; stop printing object Cube id:0 copy 0
;LAYER_CHANGE
;Z:2.6
;HEIGHT:0.2
;BEFORE_LAYER_CHANGE
;2.6
G92 E0

G1 Z2.750 F3600 ; move to next layer (12)
;AFTER_LAYER_CHANGE
;2.6
;_SET_FAN_SPEED_CHANGING_LAYER
; printing object Cube id:0 copy 0
G1 F600
G1 Z2.775 X50 Y43.353 E.21956 ; perimeter
G1 Z2.814 X55.091 Y48.444 E.33351 ; perimeter
G1 Z2.825 X56.647 Y50 E.10191 ; perimeter
M73 P25 R2
G1 Z2.875 X50 Y56.647 E.43542 ; perimeter
G1 Z2.925 X43.353 Y50 E.43542 ; perimeter
G1 Z2.950 X46.648 Y46.705 E.21586 ; perimeter
M73 P26 R2
; stop printing object Cube id:0 copy 0
;LAYER_CHANGE
;Z:2.8
;HEIGHT:0.2
;BEFORE_LAYER_CHANGE
;2.8
G92 E0

G1 Z2.950 F3600 ; move to next layer (13)
;AFTER_LAYER_CHANGE
;2.8
;_SET_FAN_SPEED_CHANGING_LAYER
; printing object Cube id:0 copy 0
G1 F600
G1 Z2.975 X50 Y43.353 E.21956 ; perimeter
G1 Z3.012 X54.95 Y48.303 E.32425 ; perimeter
G1 Z3.025 X56.647 Y50 E.11117 ; perimeter
M73 P27 R2
G1 Z3.075 X50 Y56.647 E.43542 ; perimeter
G1 Z3.125 X43.353 Y50 E.43542 ; perimeter
G1 Z3.150 X46.648 Y46.705 E.21586 ; perimeter
M73 P28 R2
; stop printing object Cube id:0 copy 0
;LAYER_CHANGE
;Z:3
;HEIGHT:0.2
;BEFORE_LAYER_CHANGE
;3
G92 E0

G1 Z3.150 F3600 ; move to next layer (14)
;AFTER_LAYER_CHANGE
;3
;_SET_FAN_SPEED_CHANGING_LAYER
; printing object Cube id:0 copy 0
G1 F600
G1 Z3.175 X50 Y43.353 E.21956 ; perimeter
G1 Z3.211 X54.808 Y48.162 E.31499 ; perimeter
G1 Z3.225 X56.647 Y50 E.12044 ; perimeter
M73 P29 R2
G1 Z3.275 X50 Y56.647 E.43542 ; perimeter
G1 Z3.325 X43.353 Y50 E.43542 ; perimeter
G1 Z3.350 X46.648 Y46.705 E.21586 ; perimeter
M73 P30 R2
; stop printing object Cube id:0 copy 0
;LAYER_CHANGE
;Z:3.2
;HEIGHT:0.2
;BEFORE_LAYER_CHANGE
;3.2
G92 E0

G1 Z3.350 F3600 ; move to next layer (15)
;AFTER_LAYER_CHANGE
;3.2
;_SET_FAN_SPEED_CHANGING_LAYER
; printing object Cube id:0 copy 0
G1 F600
G1 Z3.375 X50 Y43.353 E.21956 ; perimeter
G1 Z3.410 X54.667 Y48.02 E.30572 ; perimeter
G1 Z3.425 X56.647 Y50 E.1297 ; perimeter
M73 P31 R2
G1 Z3.475 X50 Y56.647 E.43542 ; perimeter
G1 Z3.525 X43.353 Y50 E.43542 ; perimeter
G1 Z3.550 X46.648 Y46.705 E.21586 ; perimeter
M73 P32 R2
; stop printing object Cube id:0 copy 0
;LAYER_CHANGE
;Z:3.4
;HEIGHT:0.2
;BEFORE_LAYER_CHANGE
;3.4
G92 E0

G1 Z3.550 F3600 ; move to next layer (16)
;AFTER_LAYER_CHANGE
;3.4
;_SET_FAN_SPEED_CHANGING_LAYER
; printing object Cube id:0 copy 0
G1 F600
G1 Z3.575 X50 Y43.353 E.21956 ; perimeter
G1 Z3.609 X54.525 Y47.879 E.29646 ; perimeter
G1 Z3.625 X56.647 Y50 E.13896 ; perimeter
M73 P33 R2
G1 Z3.675 X50 Y56.647 E.43542 ; perimeter
G1 Z3.725 X43.353 Y50 E.43542 ; perimeter
G1 Z3.750 X46.648 Y46.705 E.21586 ; perimeter
M73 P34 R2
; stop printing object Cube id:0 copy 0
;LAYER_CHANGE
;Z:3.6
;HEIGHT:0.2
;BEFORE_LAYER_CHANGE
;3.6
G92 E0

G1 Z3.750 F3600 ; move to next layer (17)
;AFTER_LAYER_CHANGE
;3.6
;_SET_FAN_SPEED_CHANGING_LAYER
; printing object Cube id:0 copy 0
G1 F600
G1 Z3.775 X50 Y43.353 E.21956 ; perimeter
G1 Z3.808 X54.384 Y47.737 E.28719 ; perimeter
G1 Z3.825 X56.647 Y50 E.14823 ; perimeter
M73 P35 R2
G1 Z3.875 X50 Y56.647 E.43542 ; perimeter
G1 Z3.925 X43.353 Y50 E.43542 ; perimeter
G1 Z3.950 X46.648 Y46.705 E.21586 ; perimeter
M73 P36 R2
; stop printing object Cube id:0 copy 0
;LAYER_CHANGE
;Z:3.8
;HEIGHT:0.2
;BEFORE_LAYER_CHANGE
;3.8
G92 E0

G1 Z3.950 F3600 ; move to next layer (18)
;AFTER_LAYER_CHANGE
;3.8
;_SET_FAN_SPEED_CHANGING_LAYER
; printing object Cube id:0 copy 0
G1 F600
G1 Z3.975 X50 Y43.353 E.21956 ; perimeter
G1 Z4.007 X54.243 Y47.596 E.27793 ; perimeter
G1 Z4.025 X56.647 Y50 E.15749 ; perimeter
M73 P37 R2
G1 Z4.075 X50 Y56.647 E.43542 ; perimeter
G1 Z4.125 X43.353 Y50 E.43542 ; perimeter
M73 P37 R1
G1 Z4.150 X46.648 Y46.705 E.21586 ; perimeter
M73 P38 R1
; stop printing object Cube id:0 copy 0
;LAYER_CHANGE
;Z:4
;HEIGHT:0.2
;BEFORE_LAYER_CHANGE
;4
G92 E0

G1 Z4.150 F3600 ; move to next layer (19)
;AFTER_LAYER_CHANGE
;4
;_SET_FAN_SPEED_CHANGING_LAYER
; printing object Cube id:0 copy 0
G1 F600
G1 Z4.175 X50 Y43.353 E.21956 ; perimeter
G1 Z4.206 X54.101 Y47.454 E.26866 ; perimeter
G1 Z4.225 X56.647 Y50 E.16676 ; perimeter
M73 P39 R1
G1 Z4.275 X50 Y56.647 E.43542 ; perimeter
G1 Z4.325 X43.353 Y50 E.43542 ; perimeter
G1 Z4.350 X46.648 Y46.705 E.21586 ; perimeter
M73 P40 R1
; stop printing object Cube id:0 copy 0
;LAYER_CHANGE
;Z:4.2
;HEIGHT:0.2
;BEFORE_LAYER_CHANGE
;4.2
G92 E0

G1 Z4.350 F3600 ; move to next layer (20)
;AFTER_LAYER_CHANGE
;4.2
;_SET_FAN_SPEED_CHANGING_LAYER
; printing object Cube id:0 copy 0
G1 F600
G1 Z4.375 X50 Y43.353 E.21956 ; perimeter
G1 Z4.405 X53.96 Y47.313 E.2594 ; perimeter
G1 Z4.425 X56.647 Y50 E.17602 ; perimeter
M73 P41 R1
G1 Z4.475 X50 Y56.647 E.43542 ; perimeter
G1 Z4.525 X43.353 Y50 E.43542 ; perimeter
G1 Z4.550 X46.648 Y46.705 E.21586 ; perimeter
M73 P42 R1
; stop printing object Cube id:0 copy 0
;LAYER_CHANGE
;Z:4.4
;HEIGHT:0.2
;BEFORE_LAYER_CHANGE
;4.4
G92 E0

G1 Z4.550 F3600 ; move to next layer (21)
;AFTER_LAYER_CHANGE
;4.4
;_SET_FAN_SPEED_CHANGING_LAYER
; printing object Cube id:0 copy 0
G1 F600
G1 Z4.575 X50 Y43.353 E.21956 ; perimeter
G1 Z4.604 X53.818 Y47.172 E.25014 ; perimeter
G1 Z4.625 X56.647 Y50 E.18529 ; perimeter
G1 Z4.675 X50 Y56.647 E.43542 ; perimeter
M73 P43 R1
G1 Z4.725 X43.353 Y50 E.43542 ; perimeter
G1 Z4.750 X46.648 Y46.705 E.21586 ; perimeter
M73 P44 R1
; stop printing object Cube id:0 copy 0
;LAYER_CHANGE
;Z:4.6
;HEIGHT:0.2
;BEFORE_LAYER_CHANGE
;4.6
G92 E0

G1 Z4.750 F3600 ; move to next layer (22)
;AFTER_LAYER_CHANGE
;4.6
;_SET_FAN_SPEED_CHANGING_LAYER
; printing object Cube id:0 copy 0
G1 F600
G1 Z4.775 X50 Y43.353 E.21956 ; perimeter
G1 Z4.803 X53.677 Y47.03 E.24087 ; perimeter
G1 Z4.825 X56.647 Y50 E.19455 ; perimeter
G1 Z4.875 X50 Y56.647 E.43542 ; perimeter
M73 P45 R1
G1 Z4.925 X43.353 Y50 E.43542 ; perimeter
G1 Z4.950 X46.648 Y46.705 E.21586 ; perimeter
M73 P46 R1
; stop printing object Cube id:0 copy 0
;LAYER_CHANGE
;Z:4.8
;HEIGHT:0.2
;BEFORE_LAYER_CHANGE
;4.8
G92 E0

G1 Z4.950 F3600 ; move to next layer (23)
;AFTER_LAYER_CHANGE
;4.8
;_SET_FAN_SPEED_CHANGING_LAYER
; printing object Cube id:0 copy 0
G1 F600
G1 Z4.975 X50 Y43.353 E.21956 ; perimeter
G1 Z5.002 X53.536 Y46.889 E.23161 ; perimeter
G1 Z5.025 X56.647 Y50 E.20381 ; perimeter
G1 Z5.075 X50 Y56.647 E.43542 ; perimeter
M73 P47 R1
G1 Z5.125 X43.353 Y50 E.43542 ; perimeter
G1 Z5.150 X46.648 Y46.705 E.21586 ; perimeter
M73 P48 R1
; stop printing object Cube id:0 copy 0
;LAYER_CHANGE
;Z:5
;HEIGHT:0.2
;BEFORE_LAYER_CHANGE
;5
G92 E0

G1 Z5.150 F3600 ; move to next layer (24)
;AFTER_LAYER_CHANGE
;5
;_SET_FAN_SPEED_CHANGING_LAYER
; printing object Cube id:0 copy 0
G1 F600
G1 Z5.175 X50 Y43.353 E.21956 ; perimeter
G1 Z5.201 X53.394 Y46.747 E.22234 ; perimeter
G1 Z5.225 X56.647 Y50 E.21308 ; perimeter
G1 Z5.275 X50 Y56.647 E.43542 ; perimeter
M73 P49 R1
G1 Z5.325 X43.353 Y50 E.43542 ; perimeter
G1 Z5.350 X46.648 Y46.705 E.21586 ; perimeter
M73 P50 R1
; stop printing object Cube id:0 copy 0
;LAYER_CHANGE
;Z:5.2
;HEIGHT:0.2
;BEFORE_LAYER_CHANGE
;5.2
G92 E0

G1 Z5.350 F3600 ; move to next layer (25)
;AFTER_LAYER_CHANGE
;5.2
;_SET_FAN_SPEED_CHANGING_LAYER
; printing object Cube id:0 copy 0
G1 F600
G1 Z5.375 X50 Y43.353 E.21956 ; perimeter
G1 Z5.400 X53.253 Y46.606 E.21308 ; perimeter
G1 Z5.425 X56.647 Y50 E.22234 ; perimeter
G1 Z5.475 X50 Y56.647 E.43542 ; perimeter
M73 P51 R1
G1 Z5.525 X43.353 Y50 E.43542 ; perimeter
G1 Z5.550 X46.648 Y46.705 E.21586 ; perimeter
M73 P52 R1
; stop printing object Cube id:0 copy 0
;LAYER_CHANGE
;Z:5.4
;HEIGHT:0.2
;BEFORE_LAYER_CHANGE
;5.4
G92 E0

G1 Z5.550 F3600 ; move to next layer (26)
;AFTER_LAYER_CHANGE
;5.4
;_SET_FAN_SPEED_CHANGING_LAYER
; printing object Cube id:0 copy 0
G1 F600
G1 Z5.575 X50 Y43.353 E.21956 ; perimeter
G1 Z5.599 X53.111 Y46.464 E.20381 ; perimeter
G1 Z5.625 X56.647 Y50 E.23161 ; perimeter
G1 Z5.675 X50 Y56.647 E.43542 ; perimeter
M73 P53 R1
G1 Z5.725 X43.353 Y50 E.43542 ; perimeter
G1 Z5.750 X46.648 Y46.705 E.21586 ; perimeter
M73 P54 R1
; stop printing object Cube id:0 copy 0
;LAYER_CHANGE
;Z:5.6
;HEIGHT:0.2
;BEFORE_LAYER_CHANGE
;5.6
G92 E0

G1 Z5.750 F3600 ; move to next layer (27)
;AFTER_LAYER_CHANGE
;5.6
;_SET_FAN_SPEED_CHANGING_LAYER
; printing object Cube id:0 copy 0
G1 F600
G1 Z5.775 X50 Y43.353 E.21956 ; perimeter
G1 Z5.798 X52.97 Y46.323 E.19455 ; perimeter
G1 Z5.825 X56.647 Y50 E.24087 ; perimeter
G1 Z5.875 X50 Y56.647 E.43542 ; perimeter
M73 P55 R1
