; HEADER_BLOCK_START
; generated by OrcaSlicer 2.3.1 on 2026-03-05 at 11:00:11
; total layer number: 51
; filament_density: 1.24
; filament_diameter: 1.75
; max_z_height: 10.00
; HEADER_BLOCK_END

; THUMBNAIL_BLOCK_START

;
; THUMBNAIL_BLOCK_END

; THUMBNAIL_BLOCK_START

;
; THUMBNAIL_BLOCK_END

; external perimeters extrusion width = 0.60mm
; perimeters extrusion width = 0.45mm
; infill extrusion width = 0.45mm
; solid infill extrusion width = 0.40mm
; top infill extrusion width = 0.40mm
; first layer extrusion width = 0.60mm

; EXECUTABLE_BLOCK_START
M73 P0 R2
M201 X10000 Y10000 Z500 E800
M203 X500 Y500 Z20 E60
M204 P10000 R1000 T10000
M205 X20.00 Y20.00 Z10.00 E5.00 ; sets the jerk limits, mm/sec
;TYPE:Custom
G21 ;
G90 ; use absolute coordinates
M83 ; extruder relative mode
M204 S10000 T1000
M104 S220 ; set extruder temp
M140 S55 ; set bed temp
M190 S55 ; wait for bed temp
M109 S220 ; wait for extruder temp
G92 E0.0
G28 X0 Y0 ; home
G28 Z0 ; home
G1  Z5 F1000 ; move print head up
G90
G21
M83 ; use relative distances for extrusion
; Filament gcode
M106 S0 ; disable fan
;LAYER_CHANGE
;Z:0.2
;HEIGHT:0.2
;BEFORE_LAYER_CHANGE
;0.2
G92 E0

G1 Z.55 F3600 ; move to next layer (0)
;AFTER_LAYER_CHANGE
;0.2
;_SET_FAN_SPEED_CHANGING_LAYER
M204 S600 ; adjust acceleration
M205 X4 Y4 ; adjust jerk
; printing object Cylinder id:6474698 copy 0
G1 E-.9 F3000 ; retract
G1 Z1.05 F3600 ; lift Z
G1 X46.676 Y46.687 ; move to first perimeter point
G1 Z.55 ; move to first perimeter point
M73 P1 R2
G1 Z.2 ; force restore Z after unknown last pos
G1 E.95 F900 ;  ; unretract
;TYPE:Outer wall
;WIDTH:0.6
G1 F600
G1 X46.855 Y46.507 E.01175 ; perimeter
G1 X47.106 Y46.296 E.0152 ; perimeter
G1 X47.509 Y46.014 E.02279 ; perimeter
G1 X47.94 Y45.776 E.02279 ; perimeter
G1 X48.393 Y45.583 E.02279 ; perimeter
G1 X48.704 Y45.482 E.01519 ; perimeter
G1 X49.184 Y45.371 E.02279 ; perimeter
G1 X49.672 Y45.311 E.02279 ; perimeter
G1 X50.164 Y45.303 E.02279 ; perimeter
G1 X50.491 Y45.326 E.0152 ; perimeter
G1 X50.977 Y45.403 E.02279 ; perimeter
G1 X51.452 Y45.53 E.02279 ; perimeter
G1 X51.912 Y45.706 E.02279 ; perimeter
G1 X52.35 Y45.93 E.02279 ; perimeter
G1 X52.63 Y46.105 E.01527 ; perimeter
G1 X53.021 Y46.4 E.02271 ; perimeter
G1 X53.381 Y46.735 E.02279 ; perimeter
G1 X53.704 Y47.106 E.02279 ; perimeter
G1 X53.986 Y47.509 E.02279 ; perimeter
G1 X54.224 Y47.94 E.02279 ; perimeter
G1 X54.417 Y48.392 E.02279 ; perimeter
G1 X54.56 Y48.863 E.02279 ; perimeter
G1 X54.629 Y49.184 E.0152 ; perimeter
G1 X54.689 Y49.672 E.02279 ; perimeter
G1 X54.697 Y50.164 E.02279 ; perimeter
M73 P2 R2
G1 X54.654 Y50.654 E.02279 ; perimeter
G1 X54.56 Y51.137 E.02279 ; perimeter
G1 X54.417 Y51.607 E.02279 ; perimeter
G1 X54.294 Y51.912 E.0152 ; perimeter
G1 X54.07 Y52.35 E.02279 ; perimeter
G1 X53.802 Y52.763 E.02279 ; perimeter
G1 X53.492 Y53.146 E.02287 ; perimeter
G1 X53.145 Y53.493 E.02271 ; perimeter
G1 X52.763 Y53.802 E.02279 ; perimeter
G1 X52.35 Y54.07 E.02279 ; perimeter
G1 X52.059 Y54.225 E.01527 ; perimeter
G1 X51.607 Y54.417 E.02271 ; perimeter
G1 X51.295 Y54.518 E.0152 ; perimeter
G1 X50.816 Y54.629 E.02279 ; perimeter
G1 X50.328 Y54.689 E.02279 ; perimeter
G1 X49.836 Y54.697 E.02279 ; perimeter
G1 X49.346 Y54.654 E.02279 ; perimeter
G1 X48.863 Y54.56 E.02279 ; perimeter
G1 X48.546 Y54.469 E.01528 ; perimeter
G1 X48.088 Y54.294 E.02271 ; perimeter
G1 X47.65 Y54.07 E.02279 ; perimeter
G1 X47.237 Y53.802 E.02279 ; perimeter
G1 X46.854 Y53.492 E.02287 ; perimeter
G1 X46.507 Y53.145 E.02271 ; perimeter
G1 X46.296 Y52.894 E.0152 ; perimeter
G1 X46.014 Y52.491 E.02279 ; perimeter
G1 X45.776 Y52.06 E.02279 ; perimeter
G1 X45.583 Y51.608 E.02279 ; perimeter
G1 X45.44 Y51.137 E.02279 ; perimeter
G1 X45.371 Y50.816 E.0152 ; perimeter
G1 X45.311 Y50.328 E.02279 ; perimeter
G1 X45.303 Y49.836 E.02279 ; perimeter
G1 X45.326 Y49.509 E.01519 ; perimeter
M73 P3 R2
G1 X45.403 Y49.023 E.02279 ; perimeter
G1 X45.53 Y48.548 E.02279 ; perimeter
G1 X45.706 Y48.088 E.02279 ; perimeter
G1 X45.931 Y47.649 E.02287 ; perimeter
G1 X46.199 Y47.236 E.02279 ; perimeter
G1 X46.508 Y46.854 E.02279 ; perimeter
G1 X46.647 Y46.715 E.00911 ; perimeter
; stop printing object Cylinder id:6474698 copy 0
M106 S255 ; enable fan
;LAYER_CHANGE
;Z:0.4
;HEIGHT:0.2
;BEFORE_LAYER_CHANGE
;0.4
G92 E0

G1 Z0.200 F3600 ; move to next layer (1)
;AFTER_LAYER_CHANGE
;0.4
;_SET_FAN_SPEED_CHANGING_LAYER
M104 S200 ; set nozzle temperature
; printing object Cylinder id:6474698 copy 0
G1 F600
G1 Z0.202 X46.735 Y46.619 E0.00003 ; perimeter
G1 Z0.209 X46.979 Y46.4 E0.00024 ; perimeter
G1 Z0.218 X47.372 Y46.104 E0.00073 ; perimeter
G1 Z0.227 X47.794 Y45.85 E0.00111 ; perimeter
G1 Z0.236 X48.239 Y45.642 E0.00149 ; perimeter
G1 Z0.245 X48.704 Y45.482 E0.00187 ; perimeter
G1 Z0.254 X49.184 Y45.371 E0.00225 ; perimeter
G1 Z0.264 X49.672 Y45.311 E0.00263 ; perimeter
G1 Z0.273 X50.164 Y45.303 E0.00301 ; perimeter
G1 Z0.282 X50.654 Y45.346 E0.00339 ; perimeter
G1 Z0.288 X50.977 Y45.403 E0.00243 ; perimeter
G1 Z0.297 X51.452 Y45.53 E0.00402 ; perimeter
G1 Z0.306 X51.912 Y45.706 E0.00440 ; perimeter
G1 Z0.312 X52.206 Y45.85 E0.00311 ; perimeter
G1 Z0.322 X52.628 Y46.104 E0.00504 ; perimeter
G1 Z0.331 X53.021 Y46.4 E0.00542 ; perimeter
G1 Z0.340 X53.381 Y46.735 E0.00580 ; perimeter
G1 Z0.349 X53.704 Y47.106 E0.00618 ; perimeter
G1 Z0.358 X53.986 Y47.509 E0.00656 ; perimeter
G1 Z0.367 X54.224 Y47.94 E0.00694 ; perimeter
G1 Z0.377 X54.417 Y48.393 E0.00732 ; perimeter
G1 Z0.386 X54.56 Y48.863 E0.00770 ; perimeter
G1 Z0.392 X54.629 Y49.184 E0.00530 ; perimeter
G1 Z0.401 X54.689 Y49.672 E0.00833 ; perimeter
G1 Z0.410 X54.697 Y50.164 E0.00871 ; perimeter
G1 Z0.419 X54.654 Y50.654 E0.00909 ; perimeter
M73 P4 R2
G1 Z0.429 X54.56 Y51.137 E0.00947 ; perimeter
G1 Z0.438 X54.417 Y51.607 E0.00985 ; perimeter
G1 Z0.447 X54.224 Y52.06 E0.01023 ; perimeter
G1 Z0.453 X54.07 Y52.35 E0.00699 ; perimeter
G1 Z0.462 X53.802 Y52.763 E0.01086 ; perimeter
G1 Z0.471 X53.493 Y53.145 E0.01124 ; perimeter
G1 Z0.480 X53.145 Y53.493 E0.01162 ; perimeter
G1 Z0.490 X52.758 Y53.805 E0.01213 ; perimeter
G1 Z0.499 X52.35 Y54.07 E0.01225 ; perimeter
G1 Z0.508 X51.912 Y54.294 E0.01276 ; perimeter
G1 Z0.514 X51.607 Y54.417 E0.00867 ; perimeter
G1 Z0.523 X51.137 Y54.56 E0.01339 ; perimeter
G1 Z0.529 X50.816 Y54.629 E0.00910 ; perimeter
G1 Z0.539 X50.328 Y54.689 E0.01403 ; perimeter
G1 Z0.548 X49.836 Y54.697 E0.01441 ; perimeter
G1 Z0.557 X49.346 Y54.654 E0.01478 ; perimeter
G1 Z0.566 X48.863 Y54.56 E0.01517 ; perimeter
G1 Z0.575 X48.393 Y54.417 E0.01555 ; perimeter
G1 Z0.584 X47.94 Y54.224 E0.01593 ; perimeter
G1 Z0.590 X47.65 Y54.07 E0.01079 ; perimeter
G1 Z0.600 X47.237 Y53.802 E0.01656 ; perimeter
G1 Z0.609 X46.855 Y53.493 E0.01694 ; perimeter
G1 Z0.618 X46.507 Y53.145 E0.01732 ; perimeter
G1 Z0.624 X46.293 Y52.89 E0.01190 ; perimeter
G1 Z0.633 X46.014 Y52.491 E0.01776 ; perimeter
G1 Z0.642 X45.774 Y52.056 E0.01852 ; perimeter
G1 Z0.652 X45.583 Y51.607 E0.01852 ; perimeter
G1 Z0.658 X45.482 Y51.296 E0.01264 ; perimeter
G1 Z0.667 X45.371 Y50.816 E0.01935 ; perimeter
G1 Z0.676 X45.311 Y50.328 E0.01972 ; perimeter
G1 Z0.685 X45.303 Y49.836 E0.02010 ; perimeter
G1 Z0.694 X45.346 Y49.346 E0.02048 ; perimeter
G1 Z0.700 X45.403 Y49.023 E0.01383 ; perimeter
M73 P5 R2
G1 Z0.710 X45.53 Y48.548 E0.02112 ; perimeter
G1 Z0.719 X45.706 Y48.088 E0.02150 ; perimeter
G1 Z0.728 X45.93 Y47.65 E0.02188 ; perimeter
G1 Z0.734 X46.104 Y47.372 E0.01476 ; perimeter
G1 Z0.743 X46.4 Y46.979 E0.02250 ; perimeter
G1 Z0.750 X46.647 Y46.714 E0.01678 ; perimeter
; stop printing object Cylinder id:6474698 copy 0
;LAYER_CHANGE
;Z:0.6
;HEIGHT:0.2
;BEFORE_LAYER_CHANGE
;0.6
G92 E0

G1 Z0.750 F3600 ; move to next layer (2)
;AFTER_LAYER_CHANGE
;0.6
;_SET_FAN_SPEED_CHANGING_LAYER
; printing object Cylinder id:6474698 copy 0
G1 F600
G1 Z0.751 X46.735 Y46.619 E.00601 ; perimeter
G1 Z0.753 X46.979 Y46.4 E.01519 ; perimeter
G1 Z0.756 X47.372 Y46.104 E.02279 ; perimeter
G1 Z0.760 X47.794 Y45.85 E.02279 ; perimeter
G1 Z0.763 X48.239 Y45.642 E.02279 ; perimeter
G1 Z0.766 X48.705 Y45.482 E.02279 ; perimeter
G1 Z0.770 X49.184 Y45.371 E.02279 ; perimeter
G1 Z0.773 X49.672 Y45.311 E.02279 ; perimeter
G1 Z0.776 X50.164 Y45.303 E.02279 ; perimeter
G1 Z0.779 X50.491 Y45.326 E.0152 ; perimeter
G1 Z0.782 X50.977 Y45.403 E.02278 ; perimeter
G1 Z0.785 X51.452 Y45.53 E.0228 ; perimeter
G1 Z0.789 X51.911 Y45.706 E.02278 ; perimeter
G1 Z0.792 X52.35 Y45.93 E.0228 ; perimeter
G1 Z0.794 X52.635 Y46.108 E.01559 ; perimeter
G1 Z0.798 X53.021 Y46.4 E.02239 ; perimeter
G1 Z0.801 X53.381 Y46.735 E.02279 ; perimeter
G1 Z0.804 X53.704 Y47.106 E.02279 ; perimeter
G1 Z0.808 X53.986 Y47.509 E.02279 ; perimeter
G1 Z0.811 X54.224 Y47.94 E.02279 ; perimeter
G1 Z0.814 X54.416 Y48.392 E.02278 ; perimeter
G1 Z0.816 X54.518 Y48.705 E.01521 ; perimeter
G1 Z0.820 X54.629 Y49.184 E.02279 ; perimeter
G1 Z0.823 X54.689 Y49.672 E.02279 ; perimeter
G1 Z0.826 X54.697 Y50.164 E.02279 ; perimeter
G1 Z0.830 X54.654 Y50.654 E.02279 ; perimeter
G1 Z0.833 X54.56 Y51.137 E.02279 ; perimeter
G1 Z0.835 X54.47 Y51.452 E.0152 ; perimeter
M73 P6 R2
G1 Z0.839 X54.294 Y51.912 E.02279 ; perimeter
G1 Z0.842 X54.07 Y52.35 E.02278 ; perimeter
G1 Z0.845 X53.802 Y52.763 E.0228 ; perimeter
G1 Z0.848 X53.6 Y53.021 E.0152 ; perimeter
G1 Z0.851 X53.265 Y53.381 E.02279 ; perimeter
G1 Z0.854 X52.887 Y53.709 E.02318 ; perimeter
G1 Z0.858 X52.491 Y53.986 E.0224 ; perimeter
G1 Z0.861 X52.053 Y54.228 E.02318 ; perimeter
G1 Z0.864 X51.608 Y54.416 E.02238 ; perimeter
G1 Z0.866 X51.296 Y54.518 E.01521 ; perimeter
G1 Z0.870 X50.816 Y54.629 E.02279 ; perimeter
G1 Z0.873 X50.328 Y54.689 E.02279 ; perimeter
G1 Z0.876 X49.836 Y54.697 E.02279 ; perimeter
G1 Z0.880 X49.346 Y54.654 E.02279 ; perimeter
G1 Z0.883 X48.863 Y54.56 E.02279 ; perimeter
G1 Z0.886 X48.393 Y54.417 E.02279 ; perimeter
G1 Z0.889 X48.088 Y54.294 E.0152 ; perimeter
G1 Z0.892 X47.65 Y54.07 E.02279 ; perimeter
G1 Z0.895 X47.237 Y53.802 E.02279 ; perimeter
G1 Z0.899 X46.855 Y53.493 E.02279 ; perimeter
G1 Z0.901 X46.619 Y53.265 E.0152 ; perimeter
G1 Z0.904 X46.291 Y52.887 E.02318 ; perimeter
G1 Z0.908 X46.014 Y52.491 E.0224 ; perimeter
G1 Z0.911 X45.772 Y52.053 E.02318 ; perimeter
G1 Z0.914 X45.583 Y51.607 E.0224 ; perimeter
G1 Z0.916 X45.482 Y51.295 E.0152 ; perimeter
G1 Z0.920 X45.371 Y50.816 E.02279 ; perimeter
G1 Z0.923 X45.311 Y50.328 E.02279 ; perimeter
G1 Z0.926 X45.303 Y49.836 E.02279 ; perimeter
G1 Z0.929 X45.326 Y49.509 E.0152 ; perimeter
G1 Z0.932 X45.403 Y49.023 E.02278 ; perimeter
G1 Z0.935 X45.53 Y48.548 E.0228 ; perimeter
G1 Z0.939 X45.706 Y48.088 E.02279 ; perimeter
M73 P7 R2
G1 Z0.942 X45.934 Y47.643 E.02318 ; perimeter
G1 Z0.945 X46.198 Y47.237 E.0224 ; perimeter
G1 Z0.948 X46.4 Y46.979 E.0152 ; perimeter
G1 Z0.950 X46.647 Y46.714 E.01678 ; perimeter
; stop printing object Cylinder id:6474698 copy 0
;LAYER_CHANGE
;Z:0.8
;HEIGHT:0.2
;BEFORE_LAYER_CHANGE
;0.8
G92 E0

G1 Z0.950 F3600 ; move to next layer (3)
;AFTER_LAYER_CHANGE
;0.8
;_SET_FAN_SPEED_CHANGING_LAYER
; printing object Cylinder id:6474698 copy 0
G1 F600
G1 Z0.951 X46.735 Y46.619 E.00601 ; perimeter
G1 Z0.953 X46.979 Y46.4 E.01518 ; perimeter
G1 Z0.956 X47.372 Y46.104 E.0228 ; perimeter
G1 Z0.960 X47.794 Y45.85 E.02279 ; perimeter
G1 Z0.963 X48.239 Y45.642 E.02277 ; perimeter
G1 Z0.966 X48.704 Y45.482 E.02279 ; perimeter
G1 Z0.970 X49.184 Y45.371 E.0228 ; perimeter
G1 Z0.973 X49.672 Y45.311 E.02279 ; perimeter
G1 Z0.976 X50.164 Y45.303 E.02279 ; perimeter
G1 Z0.979 X50.491 Y45.326 E.0152 ; perimeter
G1 Z0.982 X50.977 Y45.403 E.02277 ; perimeter
G1 Z0.985 X51.452 Y45.53 E.0228 ; perimeter
G1 Z0.989 X51.912 Y45.706 E.02279 ; perimeter
G1 Z0.991 X52.206 Y45.85 E.01518 ; perimeter
G1 Z0.994 X52.628 Y46.103 E.02279 ; perimeter
G1 Z0.998 X53.021 Y46.4 E.0228 ; perimeter
G1 Z1.001 X53.381 Y46.735 E.02277 ; perimeter
G1 Z1.004 X53.704 Y47.106 E.0228 ; perimeter
G1 Z1.007 X53.903 Y47.382 E.01574 ; perimeter
G1 Z1.010 X54.15 Y47.793 E.02224 ; perimeter
G1 Z1.013 X54.358 Y48.239 E.02279 ; perimeter
G1 Z1.016 X54.518 Y48.704 E.02279 ; perimeter
G1 Z1.020 X54.629 Y49.184 E.02279 ; perimeter
G1 Z1.023 X54.689 Y49.672 E.02279 ; perimeter
G1 Z1.026 X54.697 Y50.164 E.02279 ; perimeter
G1 Z1.030 X54.654 Y50.654 E.02279 ; perimeter
G1 Z1.033 X54.56 Y51.137 E.02279 ; perimeter
G1 Z1.035 X54.466 Y51.464 E.01575 ; perimeter
G1 Z1.039 X54.294 Y51.912 E.02224 ; perimeter
M73 P8 R2
G1 Z1.042 X54.07 Y52.35 E.02279 ; perimeter
G1 Z1.045 X53.802 Y52.763 E.02279 ; perimeter
G1 Z1.049 X53.493 Y53.145 E.02279 ; perimeter
G1 Z1.051 X53.256 Y53.389 E.01574 ; perimeter
G1 Z1.054 X52.894 Y53.704 E.02224 ; perimeter
G1 Z1.058 X52.491 Y53.986 E.02279 ; perimeter
G1 Z1.061 X52.06 Y54.224 E.02279 ; perimeter
G1 Z1.064 X51.607 Y54.417 E.02279 ; perimeter
G1 Z1.066 X51.295 Y54.518 E.0152 ; perimeter
G1 Z1.070 X50.816 Y54.628 E.02277 ; perimeter
G1 Z1.073 X50.328 Y54.689 E.0228 ; perimeter
G1 Z1.076 X49.836 Y54.697 E.02279 ; perimeter
G1 Z1.080 X49.346 Y54.654 E.02279 ; perimeter
G1 Z1.083 X48.863 Y54.56 E.02279 ; perimeter
G1 Z1.086 X48.393 Y54.417 E.02277 ; perimeter
G1 Z1.089 X48.088 Y54.294 E.01521 ; perimeter
G1 Z1.091 X47.794 Y54.15 E.0152 ; perimeter
G1 Z1.094 X47.372 Y53.896 E.02279 ; perimeter
G1 Z1.098 X46.979 Y53.6 E.02279 ; perimeter
G1 Z1.101 X46.619 Y53.265 E.02277 ; perimeter
G1 Z1.103 X46.4 Y53.021 E.01521 ; perimeter
G1 Z1.106 X46.104 Y52.628 E.02279 ; perimeter
G1 Z1.110 X45.85 Y52.206 E.02279 ; perimeter
G1 Z1.113 X45.642 Y51.761 E.02279 ; perimeter
G1 Z1.116 X45.482 Y51.296 E.02277 ; perimeter
G1 Z1.120 X45.371 Y50.816 E.0228 ; perimeter
G1 Z1.123 X45.311 Y50.328 E.02279 ; perimeter
G1 Z1.126 X45.303 Y49.836 E.02279 ; perimeter
G1 Z1.129 X45.326 Y49.509 E.0152 ; perimeter
G1 Z1.132 X45.403 Y49.023 E.02277 ; perimeter
G1 Z1.135 X45.53 Y48.548 E.0228 ; perimeter
G1 Z1.139 X45.706 Y48.088 E.02279 ; perimeter
G1 Z1.141 X45.85 Y47.794 E.01518 ; perimeter
M73 P9 R2
G1 Z1.144 X46.103 Y47.372 E.02279 ; perimeter
G1 Z1.148 X46.4 Y46.979 E.0228 ; perimeter
G1 Z1.150 X46.647 Y46.714 E.01678 ; perimeter
; stop printing object Cylinder id:6474698 copy 0
;LAYER_CHANGE
;Z:1
;HEIGHT:0.2
;BEFORE_LAYER_CHANGE
;1
G92 E0

G1 Z1.150 F3600 ; move to next layer (4)
;AFTER_LAYER_CHANGE
;1
;_SET_FAN_SPEED_CHANGING_LAYER
; printing object Cylinder id:6474698 copy 0
G1 F600
G1 Z1.151 X46.735 Y46.619 E.00601 ; perimeter
G1 Z1.154 X47.106 Y46.296 E.02279 ; perimeter
G1 Z1.158 X47.509 Y46.014 E.02279 ; perimeter
G1 Z1.161 X47.953 Y45.769 E.02349 ; perimeter
G1 Z1.164 X48.393 Y45.583 E.02208 ; perimeter
G1 Z1.166 X48.704 Y45.482 E.01518 ; perimeter
G1 Z1.170 X49.184 Y45.371 E.02281 ; perimeter
G1 Z1.173 X49.672 Y45.311 E.02279 ; perimeter
G1 Z1.176 X50.164 Y45.303 E.02279 ; perimeter
G1 Z1.179 X50.491 Y45.326 E.0152 ; perimeter
G1 Z1.182 X50.977 Y45.403 E.02277 ; perimeter
G1 Z1.185 X51.452 Y45.53 E.02281 ; perimeter
G1 Z1.189 X51.912 Y45.706 E.02279 ; perimeter
G1 Z1.191 X52.207 Y45.85 E.0152 ; perimeter
G1 Z1.194 X52.628 Y46.103 E.02277 ; perimeter
G1 Z1.198 X53.021 Y46.4 E.02281 ; perimeter
G1 Z1.201 X53.381 Y46.735 E.02279 ; perimeter
G1 Z1.204 X53.704 Y47.106 E.02279 ; perimeter
G1 Z1.208 X53.986 Y47.509 E.02279 ; perimeter
G1 Z1.211 X54.231 Y47.954 E.02349 ; perimeter
G1 Z1.214 X54.417 Y48.393 E.02208 ; perimeter
G1 Z1.218 X54.56 Y48.863 E.02279 ; perimeter
G1 Z1.220 X54.631 Y49.199 E.0159 ; perimeter
G1 Z1.223 X54.689 Y49.672 E.02208 ; perimeter
G1 Z1.226 X54.697 Y50.164 E.02279 ; perimeter
G1 Z1.230 X54.654 Y50.654 E.02277 ; perimeter
G1 Z1.233 X54.56 Y51.137 E.02281 ; perimeter
G1 Z1.235 X54.47 Y51.452 E.0152 ; perimeter
G1 Z1.239 X54.294 Y51.912 E.02279 ; perimeter
G1 Z1.241 X54.15 Y52.206 E.01519 ; perimeter
G1 Z1.244 X53.897 Y52.628 E.02277 ; perimeter
M73 P10 R2
G1 Z1.248 X53.6 Y53.021 E.02281 ; perimeter
G1 Z1.251 X53.265 Y53.381 E.02279 ; perimeter
G1 Z1.253 X53.021 Y53.6 E.01518 ; perimeter
G1 Z1.256 X52.629 Y53.896 E.02279 ; perimeter
G1 Z1.260 X52.207 Y54.15 E.02279 ; perimeter
G1 Z1.263 X51.761 Y54.358 E.02281 ; perimeter
G1 Z1.266 X51.295 Y54.518 E.02279 ; perimeter
