;FLAVOR:RepRap
;TIME:220
;Filament used: 0.132505m
;Layer height: 0.2
;MINX:22.7
;MINY:22.7
;MINZ:0.2
;MAXX:77.3
;MAXY:77.3
;MAXZ:3.2
;TARGET_MACHINE.NAME:Prusa i3
;Generated with Cura_SteamEngine 5.11.0
T0
M104 S200
M109 S200
G21 ;metric values
G90 ;absolute positioning
M82 ;set extruder to absolute mode
M107 ;start with the fan off
G28 X0 Y0 ;move X/Y to min endstops
G28 Z0 ;move Z to min endstops
G1 Z15.0 F9000 ;move the platform down 15mm
G92 E0 ;zero the extruded length
G1 F200 E3 ;extrude 3mm of feed stock
G92 E0 ;zero the extruded length again
G1 F9000
;Put printing message on LCD screen
M117 Printing...
M82 ;absolute extrusion mode
M83 ;relative extrusion mode
G1 F1500 E-6.5
;LAYER_COUNT:16
;LAYER:0
M107
M204 T500
M566 X300 Y300
;MESH:squares.stl
G0 F4500 X31.5 Y31.5 Z0.2
M204 P300
;TYPE:WALL-INNER
G1 F1500 E6.5
G1 F1200 X31.5 Y23.5 E0.26342
G1 X23.5 Y23.5 E0.26342
G1 X23.5 Y31.5 E0.26342
G1 X31.5 Y31.5 E0.26342
G0 F4500 X31.9 Y31.9
G1 F1200 X31.9 Y23.1 E0.28976
G1 X23.1 Y23.1 E0.28976
G1 X23.1 Y31.9 E0.28976
G1 X31.9 Y31.9 E0.28976
G0 F4500 X32.3 Y32.3
;TYPE:WALL-OUTER
G1 F1200 X32.3 Y22.7 E0.3161
G1 X22.7 Y22.7 E0.3161
G1 X22.7 Y32.3 E0.3161
G1 X32.3 Y32.3 E0.3161
G0 F4500 X32.3 Y32.1
G0 X31.62 Y31.62
G0 X31.12 Y31.12
;TYPE:SKIN
G1 F1200 X23.88 Y31.12 E0.2384
G1 X23.88 Y23.88 E0.2384
G1 X31.12 Y23.88 E0.2384
G1 X31.12 Y31.12 E0.2384
G0 F4500 X30.302 Y24.08
G1 F1200 X30.92 Y24.698 E0.02878
G0 F4500 X30.92 Y25.264
G1 F1200 X29.737 Y24.08 E0.05511
G0 F4500 X29.171 Y24.08
G1 F1200 X30.92 Y25.829 E0.08144
G0 F4500 X30.92 Y26.395
G1 F1200 X28.605 Y24.08 E0.1078
G0 F4500 X28.04 Y24.08
G1 F1200 X30.92 Y26.961 E0.13413
G0 F4500 X30.92 Y27.526
G1 F1200 X27.474 Y24.08 E0.16047
G0 F4500 X26.908 Y24.08
G1 F1200 X30.92 Y28.092 E0.18683
G0 F4500 X30.92 Y28.658
G1 F1200 X26.343 Y24.08 E0.21316
G0 F4500 X25.777 Y24.08
G1 F1200 X30.92 Y29.223 E0.23949
G0 F4500 X30.92 Y29.789
G1 F1200 X25.211 Y24.08 E0.26585
G0 F4500 X24.645 Y24.08
G1 F1200 X30.92 Y30.355 E0.29221
G0 F4500 X30.92 Y30.92
G1 F1200 X24.08 Y24.08 E0.31852
G0 F4500 X24.08 Y24.645
G1 F1200 X30.354 Y30.92 E0.29218
G0 F4500 X29.788 Y30.92
G1 F1200 X24.08 Y25.211 E0.26583
G0 F4500 X24.08 Y25.777
G1 F1200 X29.223 Y30.92 E0.23949
G0 F4500 X28.657 Y30.92
G1 F1200 X24.08 Y26.343 E0.21314
G0 F4500 X24.08 Y26.908
G1 F1200 X28.091 Y30.92 E0.1868
G0 F4500 X27.526 Y30.92
G1 F1200 X24.08 Y27.474 E0.16047
G0 F4500 X24.08 Y28.04
G1 F1200 X26.96 Y30.92 E0.13411
G0 F4500 X26.394 Y30.92
G1 F1200 X24.08 Y28.605 E0.10778
G0 F4500 X24.08 Y29.171
G1 F1200 X25.828 Y30.92 E0.08142
G0 F4500 X25.263 Y30.92
G1 F1200 X24.08 Y29.737 E0.05509
G0 F4500 X24.08 Y30.302
G1 F1200 X24.697 Y30.92 E0.02875
G1 X24.767 Y30.99
G1 F1500 E-6.5
;MESH:NONMESH
G0 F600 X24.767 Y30.99 Z0.4
G0 F4500 X32.07 Y31.5
G0 X33.165 Y31.5
G0 X46.5 Y31.5
;TIME_ELAPSED:19.649348
;LAYER:1
M106 S255
;TYPE:WALL-INNER
;MESH:squares.stl
G1 F1500 E6.5
G1 F1800 X46.5 Y23.5 E0.26342
G1 X38.5 Y23.5 E0.26342
G1 X38.5 Y31.5 E0.26342
G1 X46.5 Y31.5 E0.26342
G0 F6750 X46.9 Y31.9
G1 F1800 X46.9 Y23.1 E0.28976
G1 X38.1 Y23.1 E0.28976
G1 X38.1 Y31.9 E0.28976
G1 X46.9 Y31.9 E0.28976
G0 F6750 X47.3 Y32.3
;TYPE:WALL-OUTER
G1 F1800 X47.3 Y22.7 E0.3161
G1 X37.7 Y22.7 E0.3161
G1 X37.7 Y32.3 E0.3161
G1 X47.3 Y32.3 E0.3161
G0 F6750 X47.3 Y32.1
G0 X46.62 Y31.62
G0 X46.12 Y31.12
;TYPE:SKIN
G1 F1800 X38.88 Y31.12 E0.2384
G1 X38.88 Y23.88 E0.2384
G1 X46.12 Y23.88 E0.2384
G1 X46.12 Y31.12 E0.2384
G0 F6750 X45.448 Y30.92
G1 F1800 X45.92 Y30.448 E0.02198
G0 F6750 X45.92 Y29.882
G1 F1800 X44.882 Y30.92 E0.04834
G0 F6750 X44.317 Y30.92
G1 F1800 X45.92 Y29.317 E0.07465
G0 F6750 X45.92 Y28.751
G1 F1800 X43.751 Y30.92 E0.101
G0 F6750 X43.185 Y30.92
G1 F1800 X45.92 Y28.185 E0.12736
G0 F6750 X45.92 Y27.62
G1 F1800 X42.619 Y30.92 E0.15369
G0 F6750 X42.054 Y30.92
G1 F1800 X45.92 Y27.054 E0.18003
G0 F6750 X45.92 Y26.488
G1 F1800 X41.488 Y30.92 E0.20638
G0 F6750 X40.922 Y30.92
G1 F1800 X45.92 Y25.923 E0.23272
G0 F6750 X45.92 Y25.357
G1 F1800 X40.357 Y30.92 E0.25905
G0 F6750 X39.791 Y30.92
G1 F1800 X45.92 Y24.791 E0.28541
G0 F6750 X45.92 Y24.225
G1 F1800 X39.225 Y30.92 E0.31176
G0 F6750 X39.08 Y30.499
G1 F1800 X45.499 Y24.08 E0.29891
G0 F6750 X44.934 Y24.08
G1 F1800 X39.08 Y29.933 E0.27258
G0 F6750 X39.08 Y29.368
G1 F1800 X44.368 Y24.08 E0.24624
G0 F6750 X43.802 Y24.08
G1 F1800 X39.08 Y28.802 E0.21989
G0 F6750 X39.08 Y28.236
G1 F1800 X43.237 Y24.08 E0.19355
G0 F6750 X42.671 Y24.08
G1 F1800 X39.08 Y27.671 E0.16722
G0 F6750 X39.08 Y27.105
G1 F1800 X42.105 Y24.08 E0.14086
G0 F6750 X41.54 Y24.08
G1 F1800 X39.08 Y26.539 E0.11453
G0 F6750 X39.08 Y25.973
G1 F1800 X40.974 Y24.08 E0.08817
G0 F6750 X40.408 Y24.08
G1 F1800 X39.08 Y25.408 E0.06184
G0 F6750 X39.08 Y24.842
G1 F1800 X39.843 Y24.08 E0.03551
G0 F6750 X39.277 Y24.08
G1 F1800 X39.08 Y24.276 E0.00915
G1 F1500 E-6.5
;MESH:NONMESH
G0 F600 X39.08 Y24.276 Z0.6
G0 F6750 X47.07 Y31.5
G0 X48.165 Y31.5
G0 X61.5 Y31.5
;TIME_ELAPSED:33.963322
;LAYER:2
;TYPE:WALL-INNER
;MESH:squares.stl
G1 F1500 E6.5
G1 F2400 X61.5 Y23.5 E0.26342
G1 X53.5 Y23.5 E0.26342
G1 X53.5 Y31.5 E0.26342
G1 X61.5 Y31.5 E0.26342
G0 F9000 X61.9 Y31.9
G1 F2400 X61.9 Y23.1 E0.28976
G1 X53.1 Y23.1 E0.28976
G1 X53.1 Y31.9 E0.28976
G1 X61.9 Y31.9 E0.28976
G0 F9000 X62.3 Y32.3
;TYPE:WALL-OUTER
G1 F2400 X62.3 Y22.7 E0.3161
G1 X52.7 Y22.7 E0.3161
G1 X52.7 Y32.3 E0.3161
G1 X62.3 Y32.3 E0.3161
G0 F9000 X62.3 Y32.1
G0 X61.62 Y31.62
G0 X61.12 Y31.12
;TYPE:SKIN
G1 F2400 X53.88 Y31.12 E0.2384
G1 X53.88 Y23.88 E0.2384
G1 X61.12 Y23.88 E0.2384
G1 X61.12 Y31.12 E0.2384
G0 F9000 X60.849 Y24.08
G1 F2400 X60.92 Y24.151 E0.00331
G0 F9000 X60.92 Y24.716
G1 F2400 X60.284 Y24.08 E0.02962
G0 F9000 X59.718 Y24.08
G1 F2400 X60.92 Y25.282 E0.05597
G0 F9000 X60.92 Y25.848
G1 F2400 X59.152 Y24.08 E0.08233
G0 F9000 X58.587 Y24.08
G1 F2400 X60.92 Y26.413 E0.10864
G0 F9000 X60.92 Y26.979
G1 F2400 X58.021 Y24.08 E0.135
G0 F9000 X57.455 Y24.08
G1 F2400 X60.92 Y27.545 E0.16135
G0 F9000 X60.92 Y28.11
G1 F2400 X56.89 Y24.08 E0.18766
G0 F9000 X56.324 Y24.08
G1 F2400 X60.92 Y28.676 E0.21402
G0 F9000 X60.92 Y29.242
G1 F2400 X55.758 Y24.08 E0.24038
G0 F9000 X55.193 Y24.08
G1 F2400 X60.92 Y29.807 E0.26669
G0 F9000 X60.92 Y30.373
G1 F2400 X54.627 Y24.08 E0.29304
G0 F9000 X54.08 Y24.098
G1 F2400 X60.901 Y30.92 E0.31765
G0 F9000 X60.335 Y30.92
G1 F2400 X54.08 Y24.664 E0.2913
G0 F9000 X54.08 Y25.23
G1 F2400 X59.77 Y30.92 E0.26496
G0 F9000 X59.204 Y30.92
G1 F2400 X54.08 Y25.795 E0.23863
G0 F9000 X54.08 Y26.361
G1 F2400 X58.638 Y30.92 E0.21227
G0 F9000 X58.073 Y30.92
G1 F2400 X54.08 Y26.927 E0.18594
G0 F9000 X54.08 Y27.492
G1 F2400 X57.507 Y30.92 E0.15961
G0 F9000 X56.941 Y30.92
G1 F2400 X54.08 Y28.058 E0.13325
G0 F9000 X54.08 Y28.624
G1 F2400 X56.376 Y30.92 E0.10692
G0 F9000 X55.81 Y30.92
G1 F2400 X54.08 Y29.189 E0.08058
G0 F9000 X54.08 Y29.755
G1 F2400 X55.244 Y30.92 E0.05423
G0 F9000 X54.678 Y30.92
G1 F2400 X54.08 Y30.321 E0.02787
G1 X54.01 Y30.251
G1 F1500 E-6.5
;MESH:NONMESH
G0 F600 X54.01 Y30.251 Z0.8
G0 F9000 X62.07 Y31.5
G0 X63.165 Y31.5
G0 X76.5 Y31.5
;TIME_ELAPSED:47.387917
;LAYER:3
;TYPE:WALL-INNER
;MESH:squares.stl
G1 F1500 E6.5
G1 F2400 X76.5 Y23.5 E0.26342
G1 X68.5 Y23.5 E0.26342
G1 X68.5 Y31.5 E0.26342
G1 X76.5 Y31.5 E0.26342
G0 F9000 X76.9 Y31.9
G1 F2400 X76.9 Y23.1 E0.28976
G1 X68.1 Y23.1 E0.28976
G1 X68.1 Y31.9 E0.28976
G1 X76.9 Y31.9 E0.28976
G0 F9000 X77.3 Y32.3
;TYPE:WALL-OUTER
G1 F2400 X77.3 Y22.7 E0.3161
G1 X67.7 Y22.7 E0.3161
G1 X67.7 Y32.3 E0.3161
G1 X77.3 Y32.3 E0.3161
G0 F9000 X77.3 Y32.1
G0 X76.62 Y31.62
G0 X76.12 Y31.12
;TYPE:SKIN
G1 F2400 X68.88 Y31.12 E0.2384
G1 X68.88 Y23.88 E0.2384
G1 X76.12 Y23.88 E0.2384
G1 X76.12 Y31.12 E0.2384
G0 F9000 X75.92 Y30.429
G1 F2400 X75.428 Y30.92 E0.02289
G0 F9000 X74.863 Y30.92
G1 F2400 X75.92 Y29.863 E0.04922
G0 F9000 X75.92 Y29.298
G1 F2400 X74.297 Y30.92 E0.07555
G0 F9000 X73.731 Y30.92
G1 F2400 X75.92 Y28.732 E0.10191
G0 F9000 X75.92 Y28.166
G1 F2400 X73.166 Y30.92 E0.12824
G0 F9000 X72.6 Y30.92
G1 F2400 X75.92 Y27.6 E0.1546
G0 F9000 X75.92 Y27.035
G1 F2400 X72.034 Y30.92 E0.18093
G0 F9000 X71.469 Y30.92
G1 F2400 X75.92 Y26.469 E0.20727
G0 F9000 X75.92 Y25.903
G1 F2400 X70.903 Y30.92 E0.23362
G0 F9000 X70.337 Y30.92
G1 F2400 X75.92 Y25.338 E0.25996
G0 F9000 X75.92 Y24.772
G1 F2400 X69.772 Y30.92 E0.28629
G0 F9000 X69.206 Y30.92
G1 F2400 X75.92 Y24.206 E0.31265
G0 F9000 X75.481 Y24.08
G1 F2400 X69.08 Y30.481 E0.29807
G0 F9000 X69.08 Y29.915
G1 F2400 X74.915 Y24.08 E0.27172
G0 F9000 X74.349 Y24.08
G1 F2400 X69.08 Y29.349 E0.24536
G0 F9000 X69.08 Y28.783
G1 F2400 X73.784 Y24.08 E0.21903
G0 F9000 X73.218 Y24.08
G1 F2400 X69.08 Y28.218 E0.19269
G0 F9000 X69.08 Y27.652
G1 F2400 X72.652 Y24.08 E0.16634
G0 F9000 X72.087 Y24.08
G1 F2400 X69.08 Y27.086 E0.14
G0 F9000 X69.08 Y26.521
G1 F2400 X71.521 Y24.08 E0.11367
G0 F9000 X70.955 Y24.08
G1 F2400 X69.08 Y25.955 E0.08731
G0 F9000 X69.08 Y25.389
G1 F2400 X70.39 Y24.08 E0.06098
G0 F9000 X69.824 Y24.08
G1 F2400 X69.08 Y24.824 E0.03465
G0 F9000 X69.08 Y24.258
G1 F2400 X69.258 Y24.08 E0.00829
G1 F1500 E-6.5
;MESH:NONMESH
G0 F600 X69.258 Y24.08 Z1
G0 F9000 X67.924 Y32.076
G0 X66.835 Y32.076
G0 X31.5 Y46.5
;TIME_ELAPSED:61.003392
;LAYER:4
;TYPE:WALL-INNER
;MESH:squares.stl
G1 F1500 E6.5
G1 F2400 X31.5 Y38.5 E0.26342
G1 X23.5 Y38.5 E0.26342
G1 X23.5 Y46.5 E0.26342
G1 X31.5 Y46.5 E0.26342
G0 F9000 X31.9 Y46.9
G1 F2400 X31.9 Y38.1 E0.28976
G1 X23.1 Y38.1 E0.28976
G1 X23.1 Y46.9 E0.28976
G1 X31.9 Y46.9 E0.28976
G0 F9000 X32.3 Y47.3
;TYPE:WALL-OUTER
G1 F2400 X32.3 Y37.7 E0.3161
G1 X22.7 Y37.7 E0.3161
G1 X22.7 Y47.3 E0.3161
G1 X32.3 Y47.3 E0.3161
G0 F9000 X32.3 Y47.1
G0 X31.62 Y46.62
G0 X31.12 Y46.12
;TYPE:SKIN
G1 F2400 X23.88 Y46.12 E0.2384
G1 X23.88 Y38.88 E0.2384
G1 X31.12 Y38.88 E0.2384
G1 X31.12 Y46.12 E0.2384
G0 F9000 X30.595 Y39.08
G1 F2400 X30.92 Y39.405 E0.01513
G0 F9000 X30.92 Y39.971
G1 F2400 X30.029 Y39.08 E0.04149
G0 F9000 X29.464 Y39.08
G1 F2400 X30.92 Y40.536 E0.0678
G0 F9000 X30.92 Y41.102
G1 F2400 X28.898 Y39.08 E0.09416
G0 F9000 X28.332 Y39.08
G1 F2400 X30.92 Y41.668 E0.12051
G0 F9000 X30.92 Y42.233
G1 F2400 X27.767 Y39.08 E0.14682
G0 F9000 X27.201 Y39.08
G1 F2400 X30.92 Y42.799 E0.17318
G0 F9000 X30.92 Y43.365
G1 F2400 X26.635 Y39.08 E0.19954
G0 F9000 X26.07 Y39.08
G1 F2400 X30.92 Y43.93 E0.22585
G0 F9000 X30.92 Y44.496
G1 F2400 X25.504 Y39.08 E0.2522
G0 F9000 X24.938 Y39.08
G1 F2400 X30.92 Y45.062 E0.27856
G0 F9000 X30.92 Y45.627
G1 F2400 X24.373 Y39.08 E0.30487
G0 F9000 X24.08 Y39.353
G1 F2400 X30.646 Y45.92 E0.30578
G0 F9000 X30.08 Y45.92
G1 F2400 X24.08 Y39.919 E0.27942
G0 F9000 X24.08 Y40.485
G1 F2400 X29.515 Y45.92 E0.25309
G0 F9000 X28.949 Y45.92
G1 F2400 X24.08 Y41.05 E0.22676
G0 F9000 X24.08 Y41.616
G1 F2400 X28.383 Y45.92 E0.2004
G0 F9000 X27.818 Y45.92
G1 F2400 X24.08 Y42.182 E0.17407
G0 F9000 X24.08 Y42.747
G1 F2400 X27.252 Y45.92 E0.14773
G0 F9000 X26.686 Y45.92
G1 F2400 X24.08 Y43.313 E0.12138
G0 F9000 X24.08 Y43.879
G1 F2400 X26.121 Y45.92 E0.09504
G0 F9000 X25.555 Y45.92
G1 F2400 X24.08 Y44.444 E0.06871
G0 F9000 X24.08 Y45.01
G1 F2400 X24.989 Y45.92 E0.04235
G0 F9000 X24.423 Y45.92
G1 F2400 X24.08 Y45.576 E0.016
G1 F1500 E-6.5
;MESH:NONMESH
G0 F600 X24.08 Y45.576 Z1.2
G0 F9000 X32.07 Y46.5
G0 X33.165 Y46.5
G0 X46.5 Y46.5
;TIME_ELAPSED:74.409482
;LAYER:5
;TYPE:WALL-INNER
;MESH:squares.stl
G1 F1500 E6.5
G1 F2400 X46.5 Y38.5 E0.26342
G1 X38.5 Y38.5 E0.26342
G1 X38.5 Y46.5 E0.26342
G1 X46.5 Y46.5 E0.26342
G0 F9000 X46.9 Y46.9
G1 F2400 X46.9 Y38.1 E0.28976
G1 X38.1 Y38.1 E0.28976
G1 X38.1 Y46.9 E0.28976
G1 X46.9 Y46.9 E0.28976
G0 F9000 X47.3 Y47.3
;TYPE:WALL-OUTER
G1 F2400 X47.3 Y37.7 E0.3161
G1 X37.7 Y37.7 E0.3161
G1 X37.7 Y47.3 E0.3161
G1 X47.3 Y47.3 E0.3161
G0 F9000 X47.3 Y47.1
G0 X46.62 Y46.62
G0 X46.12 Y46.12
;TYPE:SKIN
G1 F2400 X38.88 Y46.12 E0.2384
G1 X38.88 Y38.88 E0.2384
G1 X46.12 Y38.88 E0.2384
G1 X46.12 Y46.12 E0.2384
G0 F9000 X45.721 Y45.92
G1 F2400 X45.92 Y45.721 E0.00927
G0 F9000 X45.92 Y45.155
G1 F2400 X45.155 Y45.92 E0.03562
G0 F9000 X44.589 Y45.92
G1 F2400 X45.92 Y44.589 E0.06198
G0 F9000 X45.92 Y44.024
G1 F2400 X44.024 Y45.92 E0.08829
G0 F9000 X43.458 Y45.92
G1 F2400 X45.92 Y43.458 E0.11465
G0 F9000 X45.92 Y42.892
G1 F2400 X42.892 Y45.92 E0.141
G0 F9000 X42.327 Y45.92
G1 F2400 X45.92 Y42.327 E0.16731
G0 F9000 X45.92 Y41.761
G1 F2400 X41.761 Y45.92 E0.19367
G0 F9000 X41.195 Y45.92
G1 F2400 X45.92 Y41.195 E0.22003
G0 F9000 X45.92 Y40.63
G1 F2400 X40.63 Y45.92 E0.24634
G0 F9000 X40.064 Y45.92
G1 F2400 X45.92 Y40.064 E0.27269
G0 F9000 X45.92 Y39.498
G1 F2400 X39.498 Y45.92 E0.29905
G0 F9000 X39.08 Y45.773
G1 F2400 X45.773 Y39.08 E0.31167
G0 F9000 X45.207 Y39.08
G1 F2400 X39.08 Y45.207 E0.28531
G0 F9000 X39.08 Y44.642
G1 F2400 X44.642 Y39.08 E0.259
G0 F9000 X44.076 Y39.08
G1 F2400 X39.08 Y44.076 E0.23265
G0 F9000 X39.08 Y43.51
G1 F2400 X43.51 Y39.08 E0.20629
G0 F9000 X42.945 Y39.08
G1 F2400 X39.08 Y42.945 E0.17998
G0 F9000 X39.08 Y42.379
G1 F2400 X42.379 Y39.08 E0.15362
G0 F9000 X41.813 Y39.08
G1 F2400 X39.08 Y41.813 E0.12727
G0 F9000 X39.08 Y41.248
G1 F2400 X41.248 Y39.08 E0.10096
G0 F9000 X40.682 Y39.08
G1 F2400 X39.08 Y40.682 E0.0746
G0 F9000 X39.08 Y40.116
G1 F2400 X40.116 Y39.08 E0.04824
G0 F9000 X39.551 Y39.08
G1 F2400 X39.08 Y39.551 E0.02193
G1 F1500 E-6.5
;MESH:NONMESH
G0 F600 X39.08 Y39.551 Z1.4
G0 F9000 X47.07 Y46.5
G0 X48.165 Y46.5
G0 X61.5 Y46.5
;TIME_ELAPSED:87.768155
;LAYER:6
;TYPE:WALL-INNER
;MESH:squares.stl
G1 F1500 E6.5
G1 F2400 X61.5 Y38.5 E0.26342
G1 X53.5 Y38.5 E0.26342
G1 X53.5 Y46.5 E0.26342
G1 X61.5 Y46.5 E0.26342
G0 F9000 X61.9 Y46.9
G1 F2400 X61.9 Y38.1 E0.28976
G1 X53.1 Y38.1 E0.28976
G1 X53.1 Y46.9 E0.28976
G1 X61.9 Y46.9 E0.28976
G0 F9000 X62.3 Y47.3
;TYPE:WALL-OUTER
G1 F2400 X62.3 Y37.7 E0.3161
G1 X52.7 Y37.7 E0.3161
G1 X52.7 Y47.3 E0.3161
G1 X62.3 Y47.3 E0.3161
G0 F9000 X62.3 Y47.1
G0 X61.62 Y46.62
G0 X61.12 Y46.12
;TYPE:SKIN
G1 F2400 X53.88 Y46.12 E0.2384
G1 X53.88 Y38.88 E0.2384
G1 X61.12 Y38.88 E0.2384
G1 X61.12 Y46.12 E0.2384
G0 F9000 X60.576 Y39.08
G1 F2400 X60.92 Y39.424 E0.01602
G0 F9000 X60.92 Y39.99
G1 F2400 X60.011 Y39.08 E0.04235
G0 F9000 X59.445 Y39.08
G1 F2400 X60.92 Y40.555 E0.06869
G0 F9000 X60.92 Y41.121
G1 F2400 X58.879 Y39.08 E0.09504
G0 F9000 X58.314 Y39.08
G1 F2400 X60.92 Y41.687 E0.12138
G0 F9000 X60.92 Y42.252
G1 F2400 X57.748 Y39.08 E0.14771
G0 F9000 X57.182 Y39.08
G1 F2400 X60.92 Y42.818 E0.17407
G0 F9000 X60.92 Y43.384
G1 F2400 X56.617 Y39.08 E0.2004
G0 F9000 X56.051 Y39.08
G1 F2400 X60.92 Y43.95 E0.22676
G0 F9000 X60.92 Y44.515
G1 F2400 X55.485 Y39.08 E0.25309
G0 F9000 X54.92 Y39.08
G1 F2400 X60.92 Y45.081 E0.27942
G0 F9000 X60.92 Y45.647
G1 F2400 X54.354 Y39.08 E0.30578
G0 F9000 X54.08 Y39.372
G1 F2400 X60.627 Y45.92 E0.30489
G0 F9000 X60.062 Y45.92
G1 F2400 X54.08 Y39.938 E0.27856
G0 F9000 X54.08 Y40.504
G1 F2400 X59.496 Y45.92 E0.2522
G0 F9000 X58.93 Y45.92
G1 F2400 X54.08 Y41.069 E0.22587
G0 F9000 X54.08 Y41.635
G1 F2400 X58.365 Y45.92 E0.19954
G0 F9000 X57.799 Y45.92
G1 F2400 X54.08 Y42.201 E0.17318
G0 F9000 X54.08 Y42.767
G1 F2400 X57.233 Y45.92 E0.14682
G0 F9000 X56.668 Y45.92
G1 F2400 X54.08 Y43.332 E0.12051
G0 F9000 X54.08 Y43.898
G1 F2400 X56.102 Y45.92 E0.09416
G0 F9000 X55.536 Y45.92
G1 F2400 X54.08 Y44.464 E0.0678
G0 F9000 X54.08 Y45.029
G1 F2400 X54.97 Y45.92 E0.04147
G0 F9000 X54.405 Y45.92
G1 F2400 X54.08 Y45.595 E0.01513
G1 F1500 E-6.5
;MESH:NONMESH
G0 F600 X54.08 Y45.595 Z1.6
G0 F9000 X62.07 Y46.5
G0 X63.165 Y46.5
G0 X76.5 Y46.5
;TIME_ELAPSED:101.172628
;LAYER:7
;TYPE:WALL-INNER
;MESH:squares.stl
G1 F1500 E6.5
G1 F2400 X76.5 Y38.5 E0.26342
G1 X68.5 Y38.5 E0.26342
G1 X68.5 Y46.5 E0.26342
G1 X76.5 Y46.5 E0.26342
G0 F9000 X76.9 Y46.9
G1 F2400 X76.9 Y38.1 E0.28976
G1 X68.1 Y38.1 E0.28976
G1 X68.1 Y46.9 E0.28976
G1 X76.9 Y46.9 E0.28976
G0 F9000 X77.3 Y47.3
;TYPE:WALL-OUTER
G1 F2400 X77.3 Y37.7 E0.3161
G1 X67.7 Y37.7 E0.3161
G1 X67.7 Y47.3 E0.3161
G1 X77.3 Y47.3 E0.3161
G0 F9000 X77.3 Y47.1
G0 X76.62 Y46.62
G0 X76.12 Y46.12
;TYPE:SKIN
G1 F2400 X68.88 Y46.12 E0.2384
G1 X68.88 Y38.88 E0.2384
G1 X76.12 Y38.88 E0.2384
G1 X76.12 Y46.12 E0.2384
G0 F9000 X75.702 Y45.92
